; generated by PrusaSlicer 2.9.2 on 2025-06-23 at 19:03:02 UTC


;
;

;
;

;
;

;
;
; 

; external perimeters extrusion width = 0.45mm
; perimeters extrusion width = 0.45mm
; infill extrusion width = 0.45mm
; solid infill extrusion width = 0.45mm
; top infill extrusion width = 0.42mm
; first layer extrusion width = 0.50mm

M73 P0 R6
M73 Q0 S7
M201 X4000 Y4000 Z200 E2500 ; sets maximum accelerations, mm/sec^2
M203 X300 Y300 Z40 E100 ; sets maximum feedrates, mm / sec
M204 P4000 R1200 T4000 ; sets acceleration (P, T) and retract acceleration (R), mm/sec^2
M205 X8.00 Y8.00 Z2.00 E10.00 ; sets the jerk limits, mm/sec
M205 S0 T0 ; sets the minimum extruding and travel feed rate, mm/sec

M486 S0
M486 Ariot-po-2025-sensemate_newpcb-v0.1.stl
M486 S-1

;TYPE:Custom
M17 ; enable steppers
M862.1 P0.4 A0 F0 ; nozzle check
M862.3 P "MK4" ; printer model check
M862.5 P2 ; g-code level check
M862.6 P"Input shaper" ; FW feature check
M115 U6.2.4+8909

M555 X109.375 Y70.75 W32 H64.5

G90 ; use absolute coordinates
M83 ; extruder relative mode

M140 S60 ; set bed temp
M104 T0 S170 ; set extruder temp for bed leveling
M109 T0 R170 ; wait for temp

M84 E ; turn off E motor

G28 ; home all without mesh bed level

G1 X42 Y-4 Z5 F4800

M302 S155 ; lower cold extrusion limit to 155C


G1 E-2 F2400 ; retraction


M84 E ; turn off E motor

G29 P9 X10 Y-4 W32 H4

M106 S100

G0 Z40 F10000

M190 S60 ; wait for bed temp

M107

;
; MBL
;
M84 E ; turn off E motor
G29 P1 ; invalidate mbl & probe print area
G29 P1 X0 Y0 W50 H20 C ; probe near purge place
G29 P3.2 ; interpolate mbl probes
G29 P3.13 ; extrapolate mbl outside probe area
G29 A ; activate mbl

; prepare for purge
M104 S230
G0 X0 Y-4 Z15 F4800 ; move away and ready for the purge
M109 S230

G92 E0
M569 S0 E ; set spreadcycle mode for extruder

;
; Extrude purge line
;
G92 E0 ; reset extruder position
G1 E2 F2400 ; deretraction after the initial one before nozzle cleaning
G0 E7 X15 Z0.2 F500 ; purge
G0 X25 E4 F500 ; purge
M73 P1 R6
M73 Q1 S7
G0 X35 E4 F650 ; purge
G0 X45 E4 F800 ; purge
G0 X48 Z0.05 F8000 ; wipe, move close to the bed
M73 P2 R6
G0 X51 Z0.2 F8000 ; wipe, move quickly away from the bed

G92 E0
M221 S100 ; set flow to 100%
G21 ; set units to millimeters
G90 ; use absolute coordinates
M83 ; use relative distances for extrusion
M900 K0.05 ; Filament gcode


M572 S0.036 ; Filament gcode


M142 S36 ; set heatbreak target temp
M107
;LAYER_CHANGE
;Z:0.2
;HEIGHT:0.2
G1 E-.7 F2100
G1 Z.8 F720
M486 S0
G1 X113.889 Y123.448 F18000
G1 Z.2 F720
M73 Q2 S7
G1 E.7 F1500
M204 P500
;TYPE:Perimeter
;WIDTH:0.499999
G1 F2400
G1 X113.805 Y123.383 E.00404
G1 X113.678 Y123.09 E.01214
G1 X113.668 Y122.971 E.00454
G1 X113.668 Y95.529 E1.04297
G3 X113.805 Y95.117 I.826 J.046 E.0167
G1 X114.09 Y94.896 E.01371
G1 X114.354 Y94.843 E.01023
G1 X130.296 Y94.843 E.6059
G1 X130.605 Y94.916 E.01207
G1 X130.805 Y95.069 E.00957
G1 X130.95 Y95.322 E.01108
G1 X130.982 Y95.529 E.00796
G1 X130.982 Y122.971 E1.04297
G1 X130.911 Y123.275 E.01186
G1 X130.737 Y123.497 E.01072
G3 X130.296 Y123.657 I-.496 J-.678 E.01807
G1 X114.354 Y123.657 E.6059
G1 X114.09 Y123.604 E.01023
G1 X113.937 Y123.485 E.00737
M204 P4000
M204 T4000
G1 X114.189 Y123.11 F18000
M204 P500
;TYPE:External perimeter
G1 F2400
G1 X114.128 Y123.011 E.00442
G1 X114.125 Y95.529 E1.04449
G1 X114.171 Y95.391 E.00553
M73 P3 R6
G3 X114.354 Y95.3 I.262 J.296 E.00786
G1 X130.296 Y95.3 E.6059
G1 X130.445 Y95.355 E.00604
G3 X130.525 Y95.529 I-.337 J.261 E.00734
G1 X130.525 Y122.971 E1.04297
G1 X130.465 Y123.126 E.00632
M73 Q3 S7
G3 X130.296 Y123.2 I-.252 J-.345 E.00707
G1 X114.354 Y123.2 E.6059
G1 X114.224 Y123.157 E.0052
M204 P4000
G1 X114.137 Y122.766 F18000
G1 E-.7 F2100
G1 X126.792 Y99.461 Z.663 F18000
G1 X128.666 Y96.01 Z.723
G1 X130.54 Y92.559 Z.766
G1 X134.289 Y85.656 Z.8
G1 X139.718 Y75.657
M73 Q3 S6
G1 Z.2 F720
G1 E.7 F1500
M204 P500
;TYPE:Perimeter
G1 F2400
G1 X139.718 Y85.25 E.36459
G1 X139.718 Y134.343 E1.86584
G1 X110.282 Y134.343 E1.11875
G1 X110.282 Y75.657 E2.23044
M73 P4 R6
G1 X139.658 Y75.657 E1.11647
M73 Q4 S6
M204 P4000
G1 X140.175 Y75.2 F18000
M204 P500
;TYPE:External perimeter
G1 F2400
G1 X140.175 Y85.25 E.38196
G1 X140.175 Y134.8 E1.88321
G1 X109.825 Y134.8 E1.15349
M73 P5 R6
G1 X109.825 Y75.2 E2.26517
G1 X140.115 Y75.2 E1.15121
M73 Q5 S6
M204 P4000
G1 X140.174 Y75.596 F18000
G1 E-.7 F2100
G1 X138.609 Y75.84 Z.228 F18000
G1 Z.2 F720
G1 E.7 F1500
M204 P500
;TYPE:Solid infill
;WIDTH:0.501134
G1 F6000
G1 X139.329 Y76.561 E.03882
G1 X139.329 Y77.209 E.02469
M73 P6 R6
G1 X138.166 Y76.046 E.06267
G1 X137.518 Y76.046 E.02469
G1 X139.329 Y77.857 E.09758
G1 X139.329 Y78.505 E.02469
G1 X136.87 Y76.046 E.1325
G1 X136.222 Y76.046 E.02469
G1 X139.329 Y79.153 E.16741
G1 X139.329 Y79.801 E.02469
G1 X135.574 Y76.046 E.20233
G1 X134.926 Y76.046 E.02469
G1 X139.329 Y80.449 E.23724
G1 X139.329 Y81.097 E.02469
G1 X134.278 Y76.046 E.27216
G1 X133.63 Y76.046 E.02469
G1 X139.329 Y81.745 E.30708
G1 X139.329 Y82.393 E.02469
G1 X132.982 Y76.046 E.34199
G1 X132.334 Y76.046 E.02469
M73 Q6 S6
G1 X139.329 Y83.041 E.37691
G1 X139.329 Y83.689 E.02469
G1 X131.686 Y76.046 E.41182
G1 X131.038 Y76.046 E.02469
G1 X139.329 Y84.337 E.44674
G1 X139.329 Y84.985 E.02469
G1 X130.39 Y76.046 E.48166
G1 X129.742 Y76.046 E.02469
G1 X139.329 Y85.633 E.51657
G1 X139.329 Y86.281 E.02469
G1 X129.094 Y76.046 E.55149
G1 X128.446 Y76.046 E.02469
G1 X139.329 Y86.929 E.5864
G1 X139.329 Y87.577 E.02469
M73 P7 R6
G1 X127.798 Y76.046 E.62132
G1 X127.15 Y76.046 E.02469
G1 X139.329 Y88.225 E.65623
G1 X139.329 Y88.873 E.02469
G1 X126.502 Y76.046 E.69115
G1 X125.854 Y76.046 E.02469
G1 X139.329 Y89.521 E.72607
G1 X139.329 Y90.169 E.02469
G1 X125.206 Y76.046 E.76098
G1 X124.558 Y76.046 E.02469
G1 X139.329 Y90.817 E.7959
G1 X139.329 Y91.465 E.02469
M73 Q7 S6
G1 X123.91 Y76.046 E.83081
G1 X123.262 Y76.046 E.02469
G1 X139.329 Y92.113 E.86573
G1 X139.329 Y92.761 E.02469
G1 X122.614 Y76.046 E.90065
G1 X121.966 Y76.046 E.02469
G1 X139.329 Y93.409 E.93556
M73 P8 R6
G1 X139.329 Y94.057 E.02469
G1 X121.318 Y76.046 E.97048
G1 X120.67 Y76.046 E.02469
G1 X139.329 Y94.705 E1.00539
G1 X139.329 Y95.353 E.02469
G1 X120.022 Y76.046 E1.04031
G1 X119.374 Y76.046 E.02469
M73 P8 R5
G1 X139.329 Y96.001 E1.07522
G1 X139.329 Y96.649 E.02469
G1 X118.726 Y76.046 E1.11014
G1 X118.078 Y76.046 E.02469
M73 Q8 S6
G1 X139.329 Y97.297 E1.14506
G1 X139.329 Y97.945 E.02469
G1 X117.43 Y76.046 E1.17997
G1 X116.782 Y76.046 E.02469
G1 X139.329 Y98.593 E1.21489
G1 X139.329 Y99.241 E.02469
M73 P9 R5
G1 X116.134 Y76.046 E1.2498
G1 X115.486 Y76.046 E.02469
G1 X139.329 Y99.889 E1.28472
G1 X139.329 Y100.537 E.02469
G1 X114.838 Y76.046 E1.31964
G1 X114.19 Y76.046 E.02469
G1 X139.329 Y101.185 E1.35455
G1 X139.329 Y101.833 E.02469
G1 X113.542 Y76.046 E1.38947
G1 X112.894 Y76.046 E.02469
M73 Q9 S6
G1 X139.329 Y102.481 E1.42438
G1 X139.329 Y103.129 E.02469
G1 X112.246 Y76.046 E1.4593
G1 X111.598 Y76.046 E.02469
M73 P10 R5
G1 X130.007 Y94.454 E.9919
G1 X129.359 Y94.454 E.02469
G1 X110.95 Y76.046 E.9919
G1 X110.671 Y76.046 E.01063
G1 X110.671 Y76.414 E.01402
G1 X128.711 Y94.454 E.97204
G1 X128.063 Y94.454 E.02469
G1 X110.671 Y77.062 E.93712
G1 X110.671 Y77.71 E.02469
G1 X127.415 Y94.454 E.90221
G1 X126.767 Y94.454 E.02469
G1 X110.671 Y78.358 E.86729
G1 X110.671 Y79.006 E.02469
G1 X126.119 Y94.454 E.83238
G1 X125.471 Y94.454 E.02469
M73 Q10 S6
G1 X110.671 Y79.654 E.79746
G1 X110.671 Y80.302 E.02469
M73 P11 R5
G1 X124.823 Y94.454 E.76254
G1 X124.175 Y94.454 E.02469
G1 X110.671 Y80.95 E.72763
G1 X110.671 Y81.598 E.02469
G1 X123.527 Y94.454 E.69271
G1 X122.879 Y94.454 E.02469
G1 X110.671 Y82.246 E.6578
G1 X110.671 Y82.894 E.02469
G1 X122.231 Y94.454 E.62288
G1 X121.583 Y94.454 E.02469
G1 X110.671 Y83.542 E.58797
G1 X110.671 Y84.19 E.02469
G1 X120.935 Y94.454 E.55305
G1 X120.286 Y94.454 E.02473
G1 X110.671 Y84.839 E.51808
G1 X110.671 Y85.487 E.02469
G1 X119.638 Y94.454 E.48316
G1 X118.99 Y94.454 E.02469
G1 X110.671 Y86.135 E.44825
G1 X110.671 Y86.783 E.02469
G1 X118.342 Y94.454 E.41333
G1 X117.694 Y94.454 E.02469
M73 P12 R5
M73 Q11 S6
G1 X110.671 Y87.431 E.37842
G1 X110.671 Y88.079 E.02469
G1 X117.046 Y94.454 E.3435
G1 X116.398 Y94.454 E.02469
G1 X110.671 Y88.727 E.30858
G1 X110.671 Y89.375 E.02469
G1 X115.75 Y94.454 E.27367
G1 X115.102 Y94.454 E.02469
G1 X110.671 Y90.023 E.23875
G1 X110.671 Y90.671 E.02469
G1 X114.454 Y94.454 E.20384
G2 X113.907 Y94.555 I-.065 J1.185 E.02139
G1 X110.671 Y91.319 E.17436
G1 X110.671 Y91.967 E.02469
G1 X113.54 Y94.836 E.15459
G1 X113.492 Y94.884 E.00259
G1 X113.335 Y95.18 E.01277
G1 X113.321 Y95.265 E.00328
G1 X110.671 Y92.615 E.14279
G1 X110.671 Y93.263 E.02469
G1 X113.279 Y95.871 E.14053
G1 X113.279 Y96.519 E.02469
G1 X110.671 Y93.911 E.14053
G1 X110.671 Y94.559 E.02469
G1 X113.279 Y97.168 E.14055
G1 X113.279 Y97.816 E.02469
G1 X110.671 Y95.207 E.14055
G1 X110.671 Y95.855 E.02469
G1 X113.279 Y98.464 E.14055
G1 X113.279 Y99.112 E.02469
G1 X110.671 Y96.503 E.14055
G1 X110.671 Y97.151 E.02469
G1 X113.279 Y99.76 E.14055
G1 X113.279 Y100.408 E.02469
G1 X110.671 Y97.799 E.14055
G1 X110.671 Y98.447 E.02469
G1 X113.279 Y101.056 E.14055
G1 X113.279 Y101.704 E.02469
G1 X110.671 Y99.095 E.14055
G1 X110.671 Y99.743 E.02469
M73 P13 R5
G1 X113.279 Y102.352 E.14055
G1 X113.279 Y103 E.02469
G1 X110.671 Y100.391 E.14055
G1 X110.671 Y101.039 E.02469
M73 Q12 S6
G1 X113.279 Y103.648 E.14055
G1 X113.279 Y104.296 E.02469
G1 X110.671 Y101.687 E.14055
G1 X110.671 Y102.335 E.02469
G1 X113.279 Y104.944 E.14055
G1 X113.279 Y105.592 E.02469
G1 X110.671 Y102.983 E.14055
G1 X110.671 Y103.631 E.02469
G1 X113.279 Y106.24 E.14055
G1 X113.279 Y106.888 E.02469
G1 X110.671 Y104.279 E.14055
G1 X110.671 Y104.927 E.02469
G1 X113.279 Y107.536 E.14055
G1 X113.279 Y108.184 E.02469
G1 X110.671 Y105.575 E.14055
G1 X110.671 Y106.223 E.02469
G1 X113.279 Y108.832 E.14055
G1 X113.279 Y109.48 E.02469
G1 X110.671 Y106.871 E.14055
G1 X110.671 Y107.519 E.02469
G1 X113.279 Y110.128 E.14055
G1 X113.279 Y110.776 E.02469
G1 X110.671 Y108.167 E.14055
G1 X110.671 Y108.815 E.02469
G1 X113.279 Y111.424 E.14055
G1 X113.279 Y112.072 E.02469
G1 X110.671 Y109.463 E.14055
G1 X110.671 Y110.111 E.02469
G1 X113.279 Y112.72 E.14055
G1 X113.279 Y113.368 E.02469
G1 X110.671 Y110.759 E.14055
G1 X110.671 Y111.407 E.02469
G1 X113.279 Y114.016 E.14055
G1 X113.279 Y114.664 E.02469
G1 X110.671 Y112.055 E.14055
G1 X110.671 Y112.703 E.02469
G1 X113.279 Y115.312 E.14055
G1 X113.279 Y115.96 E.02469
G1 X110.671 Y113.351 E.14055
M73 P14 R5
G1 X110.671 Y113.999 E.02469
G1 X113.279 Y116.608 E.14055
G1 X113.279 Y117.256 E.02469
G1 X110.671 Y114.647 E.14055
G1 X110.671 Y115.295 E.02469
G1 X113.279 Y117.904 E.14055
G1 X113.279 Y118.552 E.02469
G1 X110.671 Y115.943 E.14055
G1 X110.671 Y116.591 E.02469
M73 Q13 S6
G1 X113.279 Y119.2 E.14055
G1 X113.279 Y119.848 E.02469
G1 X110.671 Y117.239 E.14055
G1 X110.671 Y117.887 E.02469
G1 X113.279 Y120.496 E.14055
G1 X113.279 Y121.144 E.02469
G1 X110.671 Y118.535 E.14055
G1 X110.671 Y119.183 E.02469
G1 X113.279 Y121.792 E.14055
G1 X113.279 Y122.44 E.02469
G1 X110.465 Y119.625 E.15165
M204 P4000
G1 E-.7 F2100
G1 X133.818 Y107.059 Z.663 F18000
G1 X137.276 Y105.198 Z.723
G1 X139.535 Y103.983 Z.753
G1 Z.2 F720
G1 E.7 F1500
M204 P500
G1 F6000
G1 X131.371 Y95.818 E.43992
G1 X131.371 Y96.466 E.02469
G1 X139.329 Y104.425 E.42882
G1 X139.329 Y105.073 E.02469
G1 X131.371 Y97.114 E.42882
G1 X131.371 Y97.762 E.02469
G1 X139.329 Y105.721 E.42882
G1 X139.329 Y106.369 E.02469
G1 X131.371 Y98.41 E.42882
G1 X131.371 Y99.058 E.02469
G1 X139.329 Y107.017 E.42882
G1 X139.329 Y107.665 E.02469
M73 P15 R5
G1 X131.371 Y99.706 E.42882
G1 X131.371 Y100.354 E.02469
G1 X139.329 Y108.313 E.42882
G1 X139.329 Y108.961 E.02469
G1 X131.371 Y101.002 E.42882
G1 X131.371 Y101.65 E.02469
M73 Q14 S6
G1 X139.329 Y109.609 E.42882
G1 X139.329 Y110.257 E.02469
G1 X131.371 Y102.298 E.42882
G1 X131.371 Y102.946 E.02469
G1 X139.329 Y110.905 E.42882
G1 X139.329 Y111.553 E.02469
G1 X131.371 Y103.594 E.42882
G1 X131.371 Y104.242 E.02469
G1 X139.329 Y112.201 E.42882
G1 X139.329 Y112.849 E.02469
G1 X131.371 Y104.89 E.42882
G1 X131.371 Y105.539 E.02473
G1 X139.329 Y113.497 E.4288
G1 X139.329 Y114.145 E.02469
G1 X131.371 Y106.187 E.4288
G1 X131.371 Y106.835 E.02469
G1 X139.329 Y114.793 E.4288
G1 X139.329 Y115.441 E.02469
G1 X131.371 Y107.483 E.4288
G1 X131.371 Y108.131 E.02469
M73 P16 R5
G1 X139.329 Y116.089 E.4288
G1 X139.329 Y116.737 E.02469
G1 X131.371 Y108.779 E.4288
G1 X131.371 Y109.427 E.02469
G1 X139.329 Y117.385 E.4288
G1 X139.329 Y118.033 E.02469
G1 X131.371 Y110.075 E.4288
G1 X131.371 Y110.723 E.02469
G1 X139.329 Y118.681 E.4288
M73 Q15 S6
G1 X139.329 Y119.329 E.02469
G1 X131.371 Y111.371 E.4288
G1 X131.371 Y112.019 E.02469
G1 X139.329 Y119.977 E.4288
G1 X139.329 Y120.625 E.02469
G1 X131.371 Y112.667 E.4288
G1 X131.371 Y113.315 E.02469
G1 X139.329 Y121.273 E.4288
G1 X139.329 Y121.921 E.02469
G1 X131.371 Y113.963 E.4288
G1 X131.371 Y114.611 E.02469
G1 X139.329 Y122.569 E.4288
G1 X139.329 Y123.218 E.02473
G1 X131.371 Y115.259 E.42882
G1 X131.371 Y115.907 E.02469
M73 P17 R5
G1 X139.329 Y123.866 E.42882
G1 X139.329 Y124.514 E.02469
G1 X131.371 Y116.555 E.42882
G1 X131.371 Y117.203 E.02469
G1 X139.329 Y125.162 E.42882
G1 X139.329 Y125.81 E.02469
G1 X131.371 Y117.851 E.42882
G1 X131.371 Y118.499 E.02469
G1 X139.329 Y126.458 E.42882
G1 X139.329 Y127.106 E.02469
G1 X131.371 Y119.147 E.42882
G1 X131.371 Y119.795 E.02469
G1 X139.329 Y127.754 E.42882
G1 X139.329 Y128.402 E.02469
M73 Q16 S6
G1 X131.371 Y120.443 E.42882
G1 X131.371 Y121.091 E.02469
G1 X139.329 Y129.05 E.42882
G1 X139.329 Y129.698 E.02469
G1 X131.371 Y121.739 E.42882
G1 X131.371 Y122.387 E.02469
G1 X139.329 Y130.346 E.42882
G1 X139.329 Y130.994 E.02469
G1 X131.366 Y123.03 E.42909
G3 X131.214 Y123.526 I-1.01 J-.039 E.01999
G1 X139.329 Y131.642 E.43728
G1 X139.329 Y132.29 E.02469
M73 P18 R5
G1 X130.899 Y123.859 E.45426
G3 X130.428 Y124.036 I-.597 J-.87 E.01936
G1 X139.329 Y132.938 E.47963
G1 X139.329 Y133.586 E.02469
G1 X129.789 Y124.046 E.51404
G1 X129.141 Y124.046 E.02469
G1 X139.05 Y133.954 E.53389
G1 X138.402 Y133.954 E.02469
G1 X128.493 Y124.046 E.53389
G1 X127.845 Y124.046 E.02469
G1 X137.754 Y133.954 E.53389
G1 X137.106 Y133.954 E.02469
G1 X127.197 Y124.046 E.53389
G1 X126.549 Y124.046 E.02469
M73 Q17 S6
G1 X136.458 Y133.954 E.53389
G1 X135.81 Y133.954 E.02469
G1 X125.901 Y124.046 E.53389
G1 X125.253 Y124.046 E.02469
M73 Q17 S5
G1 X135.162 Y133.954 E.53389
G1 X134.514 Y133.954 E.02469
G1 X124.605 Y124.046 E.53389
G1 X123.957 Y124.046 E.02469
G1 X133.866 Y133.954 E.53389
G1 X133.218 Y133.954 E.02469
M73 P19 R5
G1 X123.309 Y124.046 E.53389
G1 X122.661 Y124.046 E.02469
G1 X132.57 Y133.954 E.53389
G1 X131.922 Y133.954 E.02469
G1 X122.013 Y124.046 E.53389
G1 X121.365 Y124.046 E.02469
G1 X131.274 Y133.954 E.53389
G1 X130.626 Y133.954 E.02469
G1 X120.717 Y124.046 E.53389
G1 X120.069 Y124.046 E.02469
G1 X129.978 Y133.954 E.53389
G1 X129.33 Y133.954 E.02469
G1 X119.421 Y124.046 E.53389
G1 X118.773 Y124.046 E.02469
G1 X128.682 Y133.954 E.53389
G1 X128.034 Y133.954 E.02469
M73 Q18 S5
G1 X118.125 Y124.046 E.53389
G1 X117.477 Y124.046 E.02469
G1 X127.386 Y133.954 E.53389
G1 X126.738 Y133.954 E.02469
G1 X116.829 Y124.046 E.53389
G1 X116.181 Y124.046 E.02469
M73 P20 R5
G1 X126.09 Y133.954 E.53389
G1 X125.442 Y133.954 E.02469
G1 X115.533 Y124.046 E.53389
G1 X114.885 Y124.046 E.02469
G1 X124.794 Y133.954 E.53389
G1 X124.146 Y133.954 E.02469
G1 X114.226 Y124.035 E.53449
G3 X113.707 Y123.831 I.14 J-1.12 E.02147
G1 X113.492 Y123.616 E.01158
G3 X113.295 Y123.156 I1.158 J-.769 E.01917
G1 X113.29 Y123.098 E.00222
G1 X110.671 Y120.479 E.14112
G1 X110.671 Y121.127 E.02469
G1 X123.498 Y133.954 E.69115
G1 X122.85 Y133.954 E.02469
G1 X110.671 Y121.775 E.65623
G1 X110.671 Y122.423 E.02469
G1 X122.202 Y133.954 E.62132
G1 X121.554 Y133.954 E.02469
G1 X110.671 Y123.071 E.5864
G1 X110.671 Y123.719 E.02469
G1 X120.906 Y133.954 E.55149
G1 X120.258 Y133.954 E.02469
M73 Q19 S5
G1 X110.671 Y124.367 E.51657
G1 X110.671 Y125.015 E.02469
G1 X119.61 Y133.954 E.48166
