; generated by PrusaSlicer 2.9.2 on 2025-06-23 at 14:59:02 UTC


;
;

;
;

;
;

;
;
; 

; external perimeters extrusion width = 0.45mm
; perimeters extrusion width = 0.45mm
; infill extrusion width = 0.45mm
; solid infill extrusion width = 0.45mm
; top infill extrusion width = 0.42mm
; first layer extrusion width = 0.50mm

M73 P0 R16
M73 Q0 S18
M201 X4000 Y4000 Z200 E2500 ; sets maximum accelerations, mm/sec^2
M203 X300 Y300 Z40 E100 ; sets maximum feedrates, mm / sec
M204 P4000 R1200 T4000 ; sets acceleration (P, T) and retract acceleration (R), mm/sec^2
M205 X8.00 Y8.00 Z2.00 E10.00 ; sets the jerk limits, mm/sec
M205 S0 T0 ; sets the minimum extruding and travel feed rate, mm/sec

M486 S0
M486 Ariot-sensmate-case-darft3.stl
M486 S-1

;TYPE:Custom
M17 ; enable steppers
M862.1 P0.4 A0 F0 ; nozzle check
M862.3 P "MK4" ; printer model check
M862.5 P2 ; g-code level check
M862.6 P"Input shaper" ; FW feature check
M115 U6.2.4+8909

M555 X103.62 Y55.1468 W42.7611 H95.6567

G90 ; use absolute coordinates
M83 ; extruder relative mode

M140 S60 ; set bed temp
M104 T0 S170 ; set extruder temp for bed leveling
M109 T0 R170 ; wait for temp

M84 E ; turn off E motor

G28 ; home all without mesh bed level

G1 X42 Y-4 Z5 F4800

M302 S155 ; lower cold extrusion limit to 155C


G1 E-2 F2400 ; retraction


M84 E ; turn off E motor

G29 P9 X10 Y-4 W32 H4

M106 S100

G0 Z40 F10000

M190 S60 ; wait for bed temp

M107

;
; MBL
;
M84 E ; turn off E motor
G29 P1 ; invalidate mbl & probe print area
G29 P1 X0 Y0 W50 H20 C ; probe near purge place
G29 P3.2 ; interpolate mbl probes
G29 P3.13 ; extrapolate mbl outside probe area
G29 A ; activate mbl

; prepare for purge
M104 S230
G0 X0 Y-4 Z15 F4800 ; move away and ready for the purge
M109 S230

G92 E0
M569 S0 E ; set spreadcycle mode for extruder

;
; Extrude purge line
;
G92 E0 ; reset extruder position
G1 E2 F2400 ; deretraction after the initial one before nozzle cleaning
G0 E7 X15 Z0.2 F500 ; purge
G0 X25 E4 F500 ; purge
G0 X35 E4 F650 ; purge
G0 X45 E4 F800 ; purge
G0 X48 Z0.05 F8000 ; wipe, move close to the bed
G0 X51 Z0.2 F8000 ; wipe, move quickly away from the bed

G92 E0
M221 S100 ; set flow to 100%
G21 ; set units to millimeters
G90 ; use absolute coordinates
M83 ; use relative distances for extrusion
M900 K0.05 ; Filament gcode


M572 S0.036 ; Filament gcode


M142 S36 ; set heatbreak target temp
M107
;LAYER_CHANGE
;Z:0.2
;HEIGHT:0.2
G1 E-.7 F2100
G1 Z.8 F720
M486 S0
G1 X125.009 Y110.735 F18000
G1 Z.2 F720
G1 E.7 F1500
M204 P500
;TYPE:Perimeter
;WIDTH:0.499999
G1 F2400
G1 X124.961 Y110.698 E.0023
G1 X124.823 Y110.449 E.01082
G1 X124.793 Y110.249 E.00769
G1 X124.793 Y82.806 E1.04301
G1 X124.855 Y82.521 E.01109
G1 X125.042 Y82.277 E.01168
G1 X125.303 Y82.143 E.01115
G1 X125.479 Y82.12 E.00675
G1 X141.721 Y82.12 E.6173
G1 X141.985 Y82.173 E.01023
G1 X142.27 Y82.395 E.01373
G3 X142.407 Y82.806 I-.689 J.458 E.01666
G1 X142.407 Y110.249 E1.04301
G3 X142.27 Y110.66 I-.826 J-.047 E.01666
M73 P1 R16
G1 X141.985 Y110.882 E.01373
G1 X141.721 Y110.935 E.01023
G1 X125.479 Y110.935 E.6173
G1 X125.186 Y110.869 E.01141
M73 Q1 S18
G1 X125.057 Y110.771 E.00616
M204 P4000
M204 T4000
G1 X125.349 Y110.423 F18000
M204 P500
;TYPE:External perimeter
G1 F2400
G1 X125.316 Y110.41 E.00135
G1 X125.25 Y110.249 E.00661
G1 X125.25 Y82.806 E1.04301
G1 X125.313 Y82.649 E.00643
G1 X125.479 Y82.578 E.00686
G1 X141.721 Y82.578 E.6173
G3 X141.95 Y82.806 I-.017 J.245 E.0134
G1 X141.95 Y110.249 E1.04301
G1 X141.904 Y110.386 E.00549
G3 X141.721 Y110.478 I-.262 J-.295 E.00787
G1 X125.479 Y110.478 E.6173
G1 X125.405 Y110.447 E.00305
M204 P4000
G1 X125.257 Y110.075 F18000
G1 E-.7 F2100
G1 X135.283 Y134.626 Z.663 F18000
G1 X136.768 Y138.261 Z.723
G1 X138.253 Y141.897 Z.766
G1 X139.097 Y143.963 Z.782
G1 Z.2 F720
G1 E.7 F1500
M204 P500
;TYPE:Perimeter
G1 F2400
G2 X138.915 Y144.068 I.372 J.854 E.008
G1 X138.448 Y144.5 E.02418
G1 X138.102 Y144.974 E.0223
G1 X136.87 Y145.978 E.0604
G1 X136.727 Y146.249 E.01165
G1 X135.227 Y147.208 E.06766
G1 X134.427 Y147.646 E.03466
G1 X132.827 Y148.39 E.06706
G1 X131.862 Y148.761 E.03929
G1 X130.294 Y149.249 E.06241
G1 X129.281 Y149.49 E.03957
G1 X128.916 Y149.53 E.01396
G2 X128.548 Y149.473 I-.302 J.737 E.01429
G1 X126.859 Y149.705 E.0648
G1 X126.394 Y149.891 E.01903
G1 X125.857 Y149.77 E.02092
G1 X124.148 Y149.77 E.06495
G1 X123.606 Y149.891 E.02111
G1 X123.147 Y149.706 E.01881
G1 X121.358 Y149.466 E.0686
G3 X120.797 Y149.508 I-.364 J-1.086 E.0216
G1 X119.706 Y149.249 E.04262
G1 X118.138 Y148.761 E.06241
G1 X117.173 Y148.39 E.03929
G1 X115.573 Y147.646 E.06706
G1 X114.773 Y147.208 E.03466
G1 X113.184 Y146.192 E.07168
G1 X112.547 Y145.723 E.03006
G1 X111.016 Y144.425 E.07629
G1 X110.534 Y143.96 E.02545
G1 X109.13 Y142.404 E.07965
G1 X107.51 Y140.109 E.10677
G1 X106.221 Y137.622 E.10646
G1 X105.288 Y134.996 E.10592
G1 X104.719 Y132.26 E.10621
G1 X104.527 Y129.442 E.10735
G1 X104.527 Y60.054 E2.63718
G1 X145.456 Y60.071 E1.55556
G1 X145.473 Y129.443 E2.63657
G1 X145.318 Y131.807 E.09004
G1 X145.196 Y131.926 E.00648
G1 X145.131 Y132.232 E.01189
G1 X144.886 Y133.479 E.0483
G1 X144.791 Y134.475 E.03803
G1 X144.584 Y134.663 E.01063
G1 X144.255 Y135.642 E.03925
G3 X143.963 Y137.04 I-18.43 J-3.131 E.05429
G1 X143.667 Y137.325 E.01562
G1 X143.258 Y138.162 E.03541
G3 X142.803 Y139.473 I-17.105 J-5.203 E.05276
G1 X142.462 Y139.675 E.01506
G1 X142.373 Y139.782 E.00529
M73 P2 R16
G1 X141.968 Y140.409 E.02837
G3 X141.316 Y141.765 I-11.511 J-4.703 E.05722
G1 X140.924 Y141.943 E.01636
G1 X140.809 Y142.048 E.00592
G1 X140.33 Y142.612 E.02812
G1 X140.06 Y143.076 E.0204
G1 X139.287 Y143.903 E.04302
G2 X139.153 Y143.941 I.182 J.914 E.0053
M204 P4000
G1 X139.274 Y144.384 F18000
M204 P500
;TYPE:External perimeter
G1 F2400
G2 X139.217 Y144.411 I.232 J.558 E.0024
G1 X138.817 Y144.769 E.0204
G1 X138.436 Y145.291 E.02456
G1 X137.19 Y146.305 E.06106
G3 X137.046 Y146.587 I-1.358 J-.518 E.01206
G1 X135.461 Y147.601 E.07151
G1 X134.633 Y148.054 E.03587
G1 X133.006 Y148.811 E.0682
G1 X132.012 Y149.193 E.04047
G1 X130.415 Y149.69 E.06357
G1 X129.386 Y149.935 E.0402
G1 X128.916 Y149.988 E.01798
G1 X128.613 Y149.925 E.01176
G1 X126.901 Y150.161 E.06568
G3 X126.529 Y150.329 I-.412 J-.418 E.01584
G1 X126.133 Y150.331 E.01505
G1 X125.856 Y150.227 E.01125
G1 X124.133 Y150.227 E.06548
G1 X123.944 Y150.326 E.00811
G3 X123.331 Y150.299 I-.223 J-1.922 E.02342
G1 X123.081 Y150.158 E.01091
G1 X121.381 Y149.925 E.06521
G1 X121.171 Y149.994 E.0084
G1 X120.727 Y149.961 E.01692
G1 X119.585 Y149.69 E.04461
G1 X117.988 Y149.193 E.06357
G1 X116.994 Y148.811 E.04047
G1 X115.367 Y148.054 E.0682
G1 X114.539 Y147.601 E.03587
G1 X112.925 Y146.569 E.07281
G1 X112.264 Y146.081 E.03123
G1 X110.709 Y144.764 E.07745
G1 X110.206 Y144.278 E.02658
G1 X108.772 Y142.689 E.08135
G1 X107.118 Y140.347 E.10897
G1 X105.801 Y137.805 E.10881
G1 X104.847 Y135.119 E.10833
G1 X104.266 Y132.322 E.10857
M73 Q2 S18
G1 X104.07 Y129.457 E.10914
G1 X104.07 Y59.68 E2.65196
G1 X104.147 Y59.597 E.0043
G1 X145.913 Y59.614 E1.58737
G1 X145.93 Y129.458 E2.65451
G1 X145.768 Y131.93 E.09415
G1 X145.632 Y132.063 E.00723
G1 X145.341 Y133.522 E.05654
G1 X145.23 Y134.689 E.04455
G2 X145.004 Y134.844 I.12 J.418 E.0106
G1 X144.704 Y135.731 E.03559
G3 X144.362 Y137.346 I-22.393 J-3.899 E.06276
G2 X144.077 Y137.528 I.162 J.567 E.01303
G1 X143.69 Y138.313 E.03326
G3 X143.151 Y139.852 I-21.44 J-6.647 E.06199
G2 X142.753 Y140.036 I.2 J.954 E.01681
G1 X142.388 Y140.589 E.02518
G3 X141.632 Y142.147 I-13.575 J-5.624 E.06585
G2 X141.152 Y142.349 I1.419 J4.046 E.0198
G1 X140.725 Y142.843 E.02482
G1 X140.429 Y143.351 E.02235
G1 X139.507 Y144.338 E.05133
G2 X139.33 Y144.364 I-.001 J.604 E.00682
M204 P4000
G1 X139.01 Y144.603 F18000
G1 E-.7 F2100
G1 X140.683 Y118.137 Z.663 F18000
G1 X140.931 Y114.217 Z.723
G1 X141.179 Y110.298 Z.766
G1 X141.675 Y102.459 Z.8
G1 X144.344 Y60.254
G1 Z.2 F720
G1 E.7 F1500
M204 P500
;TYPE:Solid infill
;WIDTH:0.5024
G1 F6000
G1 X145.068 Y60.978 E.03912
G1 X145.068 Y61.628 E.02483
G1 X143.9 Y60.459 E.06314
G1 X143.249 Y60.459 E.02487
G1 X145.068 Y62.278 E.09828
G1 X145.068 Y62.928 E.02483
G1 X142.599 Y60.459 E.1334
G1 X141.949 Y60.458 E.02483
G1 X145.068 Y63.577 E.16852
G1 X145.069 Y64.227 E.02483
G1 X141.299 Y60.458 E.20367
G1 X140.649 Y60.458 E.02483
G1 X145.069 Y64.877 E.23879
M73 Q2 S17
G1 X145.069 Y65.527 E.02483
G1 X139.999 Y60.458 E.27391
G1 X139.349 Y60.457 E.02483
G1 X145.069 Y66.177 E.30906
G1 X145.069 Y66.827 E.02483
G1 X138.699 Y60.457 E.34418
G1 X138.049 Y60.457 E.02483
G1 X145.069 Y67.477 E.3793
G1 X145.07 Y68.127 E.02483
G1 X137.399 Y60.456 E.41447
G1 X136.749 Y60.456 E.02483
G1 X145.07 Y68.777 E.44959
G1 X145.07 Y69.427 E.02483
M73 P3 R16
G1 X136.099 Y60.456 E.48472
G1 X135.449 Y60.456 E.02483
G1 X145.07 Y70.077 E.51984
G1 X145.07 Y70.727 E.02483
G1 X134.799 Y60.455 E.55498
G1 X134.148 Y60.455 E.02487
G1 X145.07 Y71.377 E.59013
G1 X145.071 Y72.027 E.02483
G1 X133.498 Y60.455 E.62528
G1 X132.848 Y60.455 E.02483
G1 X145.071 Y72.677 E.6604
G1 X145.071 Y73.327 E.02483
M73 Q3 S17
G1 X132.198 Y60.454 E.69555
G1 X131.548 Y60.454 E.02483
G1 X145.071 Y73.977 E.73067
G1 X145.071 Y74.627 E.02483
G1 X130.898 Y60.454 E.76579
G1 X130.248 Y60.454 E.02483
G1 X145.071 Y75.277 E.80091
G1 X145.072 Y75.927 E.02483
G1 X129.598 Y60.453 E.83608
G1 X128.948 Y60.453 E.02483
G1 X145.072 Y76.577 E.8712
G1 X145.072 Y77.227 E.02483
G1 X128.298 Y60.453 E.90632
G1 X127.648 Y60.452 E.02483
G1 X145.072 Y77.877 E.94147
G1 X145.072 Y78.527 E.02483
G1 X126.998 Y60.452 E.97659
G1 X126.348 Y60.452 E.02483
G1 X145.072 Y79.177 E1.01171
G1 X145.072 Y79.827 E.02483
G1 X125.698 Y60.452 E1.04683
G1 X125.047 Y60.451 E.02487
G1 X145.073 Y80.477 E1.08203
G1 X145.073 Y81.127 E.02483
G1 X124.397 Y60.451 E1.11715
G1 X123.747 Y60.451 E.02483
G1 X145.073 Y81.777 E1.15227
G1 X145.073 Y82.426 E.0248
G1 X123.097 Y60.451 E1.18737
G1 X122.447 Y60.45 E.02483
G1 X145.073 Y83.076 E1.22251
G1 X145.073 Y83.726 E.02483
G1 X121.797 Y60.45 E1.25763
G1 X121.147 Y60.45 E.02483
G1 X145.074 Y84.376 E1.29278
G1 X145.074 Y85.026 E.02483
M73 P4 R16
G1 X142.787 Y82.739 E.12357
G1 X142.74 Y82.458 E.01088
G1 X142.583 Y82.161 E.01284
G2 X141.917 Y81.749 I-.907 J.721 E.03052
G1 X141.784 Y81.737 E.0051
G1 X120.497 Y60.449 E1.15019
G1 X119.847 Y60.449 E.02483
G1 X141.13 Y81.732 E1.14995
G1 X140.48 Y81.732 E.02483
G1 X119.197 Y60.449 E1.14995
G1 X118.547 Y60.449 E.02483
G1 X139.83 Y81.732 E1.14995
G1 X139.18 Y81.732 E.02483
G1 X117.897 Y60.448 E1.14998
G1 X117.247 Y60.448 E.02483
M73 Q4 S17
G1 X138.53 Y81.732 E1.14998
G1 X137.881 Y81.732 E.0248
G1 X116.596 Y60.448 E1.15003
G1 X115.946 Y60.448 E.02483
G1 X137.231 Y81.732 E1.15003
G1 X136.581 Y81.732 E.02483
G1 X115.296 Y60.447 E1.15006
G1 X114.646 Y60.447 E.02483
G1 X135.931 Y81.732 E1.15006
G1 X135.281 Y81.732 E.02483
G1 X113.996 Y60.447 E1.15006
G1 X113.346 Y60.446 E.02483
G1 X134.632 Y81.732 E1.15011
G1 X133.982 Y81.732 E.02483
G1 X112.696 Y60.446 E1.15011
G1 X112.046 Y60.446 E.02483
G1 X133.332 Y81.732 E1.15011
G1 X132.683 Y81.732 E.0248
G1 X111.396 Y60.446 E1.15014
G1 X110.746 Y60.445 E.02483
G1 X132.033 Y81.732 E1.15016
G1 X131.383 Y81.733 E.02483
G1 X110.096 Y60.445 E1.15019
G1 X109.446 Y60.445 E.02483
G1 X130.734 Y81.733 E1.15022
G1 X130.084 Y81.733 E.02483
G1 X108.796 Y60.445 E1.15022
G1 X108.146 Y60.444 E.02483
M73 P5 R16
G1 X129.434 Y81.733 E1.15025
G1 X128.785 Y81.733 E.0248
G1 X107.495 Y60.444 E1.1503
G1 X106.845 Y60.444 E.02483
G1 X128.135 Y81.733 E1.1503
G1 X127.485 Y81.733 E.02483
G1 X106.195 Y60.444 E1.1503
G1 X105.545 Y60.443 E.02483
G1 X126.836 Y81.734 E1.15038
G1 X126.186 Y81.734 E.02483
G1 X104.915 Y60.463 E1.1493
G1 X104.915 Y61.113 E.02483
G1 X125.536 Y81.734 E1.11418
G2 X124.999 Y81.847 I-.053 J1.08 E.0212
M73 P5 R15
G1 X104.915 Y61.763 E1.08517
G1 X104.915 Y62.412 E.0248
M73 Q5 S17
G1 X124.64 Y82.137 E1.06577
G2 X124.431 Y82.578 I.807 J.651 E.01882
G1 X104.915 Y63.062 E1.05448
G1 X104.915 Y63.712 E.02483
G1 X124.404 Y83.201 E1.05302
G1 X124.404 Y83.851 E.02483
G1 X104.915 Y64.362 E1.05302
G1 X104.915 Y65.012 E.02483
G1 X124.404 Y84.501 E1.05302
G1 X124.404 Y85.151 E.02483
G1 X104.915 Y65.661 E1.05304
G1 X104.915 Y66.311 E.02483
G1 X124.404 Y85.8 E1.05302
G1 X124.404 Y86.45 E.02483
G1 X104.915 Y66.961 E1.05302
G1 X104.915 Y67.611 E.02483
G1 X124.404 Y87.1 E1.05302
G1 X124.404 Y87.75 E.02483
G1 X104.915 Y68.261 E1.05302
G1 X104.915 Y68.91 E.0248
G1 X124.404 Y88.4 E1.05304
G1 X124.404 Y89.049 E.0248
G1 X104.915 Y69.56 E1.05302
G1 X104.915 Y70.21 E.02483
G1 X124.404 Y89.699 E1.05302
G1 X124.404 Y90.349 E.02483
M73 P6 R15
G1 X104.915 Y70.86 E1.05302
G1 X104.915 Y71.51 E.02483
G1 X124.404 Y90.999 E1.05302
G1 X124.404 Y91.649 E.02483
G1 X104.915 Y72.159 E1.05304
G1 X104.915 Y72.809 E.02483
G1 X124.404 Y92.298 E1.05302
G1 X124.404 Y92.948 E.02483
G1 X104.915 Y73.459 E1.05302
G1 X104.915 Y74.109 E.02483
G1 X124.404 Y93.598 E1.05302
G1 X124.404 Y94.248 E.02483
G1 X104.915 Y74.759 E1.05302
G1 X104.915 Y75.408 E.0248
G1 X124.404 Y94.898 E1.05304
G1 X124.404 Y95.547 E.0248
G1 X104.915 Y76.058 E1.05302
G1 X104.915 Y76.708 E.02483
G1 X124.404 Y96.197 E1.05302
G1 X124.404 Y96.847 E.02483
M73 Q6 S17
G1 X104.915 Y77.358 E1.05302
G1 X104.915 Y78.008 E.02483
G1 X124.404 Y97.497 E1.05302
G1 X124.404 Y98.147 E.02483
G1 X104.915 Y78.657 E1.05304
G1 X104.915 Y79.307 E.02483
G1 X124.404 Y98.797 E1.05304
G1 X124.404 Y99.446 E.0248
G1 X104.915 Y79.957 E1.05302
G1 X104.915 Y80.607 E.02483
G1 X124.404 Y100.096 E1.05302
G1 X124.404 Y100.746 E.02483
G1 X104.915 Y81.257 E1.05302
G1 X104.915 Y81.906 E.0248
G1 X124.404 Y101.396 E1.05304
G1 X124.404 Y102.046 E.02483
G1 X104.915 Y82.556 E1.05304
G1 X104.915 Y83.206 E.02483
G1 X124.404 Y102.695 E1.05302
G1 X124.404 Y103.345 E.02483
G1 X104.915 Y83.856 E1.05302
G1 X104.915 Y84.506 E.02483
M73 P7 R15
G1 X124.404 Y103.995 E1.05302
G1 X124.404 Y104.645 E.02483
G1 X104.915 Y85.155 E1.05304
G1 X104.915 Y85.805 E.02483
G1 X124.404 Y105.295 E1.05304
G1 X124.404 Y105.944 E.0248
G1 X104.915 Y86.455 E1.05302
G1 X104.915 Y87.105 E.02483
G1 X124.404 Y106.594 E1.05302
G1 X124.404 Y107.244 E.02483
G1 X104.915 Y87.755 E1.05302
G1 X104.915 Y88.405 E.02483
G1 X124.404 Y107.894 E1.05302
G1 X124.404 Y108.544 E.02483
G1 X104.915 Y89.054 E1.05304
G1 X104.915 Y89.704 E.02483
G1 X124.404 Y109.193 E1.05302
G1 X124.404 Y109.843 E.02483
G1 X104.709 Y90.148 E1.06415
M204 P4000
G1 E-.7 F2100
G1 X131.083 Y87.375 Z.663 F18000
G1 X134.989 Y86.964 Z.723
G1 X138.895 Y86.553 Z.766
G1 X145.28 Y85.882 Z.799
G1 Z.2 F720
G1 E.7 F1500
M204 P500
G1 F6000
M73 Q7 S17
G1 X142.796 Y83.398 E.13421
G1 X142.796 Y84.048 E.02483
G1 X145.074 Y86.326 E.12308
G1 X145.074 Y86.976 E.02483
G1 X142.796 Y84.698 E.12308
G1 X142.796 Y85.347 E.0248
G1 X145.074 Y87.626 E.12311
G1 X145.075 Y88.276 E.02483
G1 X142.796 Y85.997 E.12314
G1 X142.796 Y86.647 E.02483
G1 X145.075 Y88.926 E.12314
G1 X145.075 Y89.576 E.02483
G1 X142.796 Y87.297 E.12314
G1 X142.796 Y87.947 E.02483
G1 X145.075 Y90.226 E.12314
G1 X145.075 Y90.876 E.02483
G1 X142.796 Y88.596 E.12316
G1 X142.796 Y89.246 E.02483
G1 X145.075 Y91.526 E.12316
G1 X145.076 Y92.176 E.02483
G1 X142.796 Y89.896 E.12319
G1 X142.796 Y90.546 E.02483
G1 X145.076 Y92.826 E.12319
G1 X145.076 Y93.476 E.02483
G1 X142.796 Y91.196 E.12319
G1 X142.796 Y91.845 E.0248
G1 X145.076 Y94.126 E.12322
G1 X145.076 Y94.776 E.02483
G1 X142.796 Y92.495 E.12322
G1 X142.796 Y93.145 E.02483
G1 X145.076 Y95.426 E.12322
G1 X145.077 Y96.076 E.02483
G1 X142.796 Y93.795 E.12325
G1 X142.796 Y94.445 E.02483
G1 X145.077 Y96.726 E.12325
G1 X145.077 Y97.376 E.02483
G1 X142.796 Y95.094 E.12327
G1 X142.796 Y95.744 E.02483
G1 X145.077 Y98.026 E.12327
G1 X145.077 Y98.676 E.02483
G1 X142.796 Y96.394 E.12327
G1 X142.796 Y97.044 E.02483
G1 X145.077 Y99.326 E.12327
G1 X145.077 Y99.976 E.02483
G1 X142.796 Y97.694 E.12327
G1 X142.796 Y98.343 E.0248
G1 X145.078 Y100.625 E.1233
G1 X145.078 Y101.275 E.02483
G1 X142.796 Y98.993 E.1233
G1 X142.796 Y99.643 E.02483
G1 X145.078 Y101.925 E.1233
G1 X145.078 Y102.575 E.02483
G1 X142.796 Y100.293 E.1233
G1 X142.796 Y100.943 E.02483
