; generated by PrusaSlicer 2.9.2 on 2025-06-30 at 11:06:34 UTC


;
;

;
;

;
;

;
;
; 

; external perimeters extrusion width = 0.45mm
; perimeters extrusion width = 0.45mm
; infill extrusion width = 0.45mm
; solid infill extrusion width = 0.45mm
; top infill extrusion width = 0.42mm
; first layer extrusion width = 0.50mm

M73 P0 R8
M73 Q0 S9
M201 X4000 Y4000 Z200 E2500 ; sets maximum accelerations, mm/sec^2
M203 X300 Y300 Z40 E100 ; sets maximum feedrates, mm / sec
M204 P4000 R1200 T4000 ; sets acceleration (P, T) and retract acceleration (R), mm/sec^2
M205 X8.00 Y8.00 Z2.00 E10.00 ; sets the jerk limits, mm/sec
M205 S0 T0 ; sets the minimum extruding and travel feed rate, mm/sec

M486 S0
M486 Ariot-po-2025-sensemate_newpcb-draft2.stl
M486 S-1

;TYPE:Custom
M17 ; enable steppers
M862.1 P0.4 A0 F0 ; nozzle check
M862.3 P "MK4" ; printer model check
M862.5 P2 ; g-code level check
M862.6 P"Input shaper" ; FW feature check
M115 U6.2.4+8909

M555 X106.14 Y70.75 W37.72 H64.5

G90 ; use absolute coordinates
M83 ; extruder relative mode

M140 S60 ; set bed temp
M104 T0 S170 ; set extruder temp for bed leveling
M109 T0 R170 ; wait for temp

M84 E ; turn off E motor

G28 ; home all without mesh bed level

G1 X42 Y-4 Z5 F4800

M302 S155 ; lower cold extrusion limit to 155C


G1 E-2 F2400 ; retraction


M84 E ; turn off E motor

G29 P9 X10 Y-4 W32 H4

M106 S100

G0 Z40 F10000

M190 S60 ; wait for bed temp

M107

;
; MBL
;
M84 E ; turn off E motor
G29 P1 ; invalidate mbl & probe print area
G29 P1 X0 Y0 W50 H20 C ; probe near purge place
G29 P3.2 ; interpolate mbl probes
G29 P3.13 ; extrapolate mbl outside probe area
G29 A ; activate mbl

; prepare for purge
M104 S230
G0 X0 Y-4 Z15 F4800 ; move away and ready for the purge
M109 S230

G92 E0
M569 S0 E ; set spreadcycle mode for extruder

;
; Extrude purge line
;
G92 E0 ; reset extruder position
G1 E2 F2400 ; deretraction after the initial one before nozzle cleaning
G0 E7 X15 Z0.2 F500 ; purge
G0 X25 E4 F500 ; purge
G0 X35 E4 F650 ; purge
M73 P1 R8
M73 Q1 S9
G0 X45 E4 F800 ; purge
G0 X48 Z0.05 F8000 ; wipe, move close to the bed
G0 X51 Z0.2 F8000 ; wipe, move quickly away from the bed

G92 E0
M221 S100 ; set flow to 100%
G21 ; set units to millimeters
G90 ; use absolute coordinates
M83 ; use relative distances for extrusion
M900 K0.05 ; Filament gcode


M572 S0.036 ; Filament gcode


M142 S36 ; set heatbreak target temp
M107
;LAYER_CHANGE
;Z:0.2
;HEIGHT:0.2
G1 E-.7 F2100
G1 Z.8 F720
M486 S0
G1 X134.457 Y95.061 F18000
G1 Z.2 F720
G1 E.7 F1500
M204 P500
;TYPE:Perimeter
;WIDTH:0.499999
G1 F2400
G1 X134.61 Y95.306 E.01098
G1 X134.647 Y95.529 E.00859
G1 X134.647 Y122.971 E1.04297
G1 X134.568 Y123.292 E.01256
G1 X134.376 Y123.517 E.01124
G1 X134.08 Y123.647 E.01229
G1 X133.961 Y123.657 E.00454
G1 X118.019 Y123.657 E.6059
G1 X117.761 Y123.607 E.00999
G1 X117.554 Y123.476 E.00931
G1 X117.396 Y123.258 E.01023
G1 X117.333 Y122.971 E.01117
G1 X117.333 Y95.529 E1.04297
G1 X117.387 Y95.262 E.01035
M73 P2 R8
G1 X117.583 Y94.999 E.01247
G3 X118.019 Y94.843 I.489 J.68 E.01783
G1 X133.961 Y94.843 E.6059
G1 X134.225 Y94.896 E.01023
G1 X134.414 Y95.021 E.00861
M204 P4000
M204 T4000
G1 X134.136 Y95.399 F18000
M204 P500
;TYPE:External perimeter
G1 F2400
G1 X134.19 Y95.529 E.00535
G1 X134.19 Y122.971 E1.04297
G1 X134.123 Y123.133 E.00666
M73 Q2 S9
G1 X133.961 Y123.2 E.00666
G1 X118.019 Y123.2 E.6059
G1 X117.864 Y123.14 E.00632
G3 X117.79 Y122.971 I.347 J-.253 E.00707
G1 X117.79 Y95.529 E1.04297
G1 X117.854 Y95.369 E.00655
G1 X118.019 Y95.3 E.0068
G1 X133.961 Y95.3 E.6059
G1 X134.1 Y95.357 E.00571
M204 P4000
G1 X134.182 Y95.749 F18000
G1 E-.7 F2100
G1 X142.953 Y75.657 Z.583 F18000
G1 Z.2 F720
G1 E.7 F1500
M204 P500
;TYPE:Perimeter
G1 F2400
G1 X142.953 Y85.25 E.36459
G1 X142.953 Y134.343 E1.86584
G1 X107.047 Y134.343 E1.36465
G1 X107.047 Y75.657 E2.23044
M73 P3 R8
G1 X142.893 Y75.657 E1.36237
M73 Q3 S9
M204 P4000
G1 X143.41 Y75.2 F18000
M204 P500
;TYPE:External perimeter
G1 F2400
G1 X143.41 Y85.25 E.38196
G1 X143.41 Y134.8 E1.88321
G1 X106.59 Y134.8 E1.39939
G1 X106.59 Y75.2 E2.26517
M73 P4 R8
G1 X143.35 Y75.2 E1.39711
M204 P4000
G1 X143.409 Y75.596 F18000
M73 Q4 S9
G1 E-.7 F2100
G1 X141.844 Y75.84 Z.228 F18000
G1 Z.2 F720
G1 E.7 F1500
M204 P500
;TYPE:Solid infill
;WIDTH:0.501085
G1 F6000
G1 X142.564 Y76.561 E.03882
G1 X142.564 Y77.208 E.02465
G1 X141.402 Y76.046 E.0626
G1 X140.754 Y76.046 E.02469
G1 X142.564 Y77.856 E.09752
G1 X142.564 Y78.504 E.02469
G1 X140.106 Y76.046 E.13243
G1 X139.458 Y76.046 E.02469
G1 X142.564 Y79.152 E.16734
G1 X142.564 Y79.8 E.02469
G1 X138.81 Y76.046 E.20225
G1 X138.162 Y76.046 E.02469
G1 X142.564 Y80.448 E.23717
G1 X142.564 Y81.096 E.02469
G1 X137.514 Y76.046 E.27208
G1 X136.866 Y76.046 E.02469
G1 X142.564 Y81.744 E.30699
G1 X142.564 Y82.392 E.02469
G1 X136.218 Y76.046 E.3419
G1 X135.57 Y76.046 E.02469
G1 X142.564 Y83.04 E.37681
G1 X142.564 Y83.688 E.02469
G1 X134.922 Y76.046 E.41173
G1 X134.274 Y76.046 E.02469
M73 P5 R8
G1 X142.564 Y84.336 E.44664
G1 X142.564 Y84.984 E.02469
G1 X133.626 Y76.046 E.48155
G1 X132.978 Y76.046 E.02469
G1 X142.564 Y85.632 E.51646
G1 X142.564 Y86.28 E.02469
G1 X132.33 Y76.046 E.55137
G1 X131.682 Y76.046 E.02469
G1 X142.564 Y86.928 E.58629
G1 X142.564 Y87.576 E.02469
G1 X131.034 Y76.046 E.6212
G1 X130.387 Y76.046 E.02465
G1 X142.564 Y88.223 E.65606
G1 X142.564 Y88.871 E.02469
G1 X129.739 Y76.046 E.69097
G1 X129.091 Y76.046 E.02469
M73 Q5 S9
G1 X142.564 Y89.519 E.72588
G1 X142.564 Y90.167 E.02469
G1 X128.443 Y76.046 E.76079
G1 X127.795 Y76.046 E.02469
G1 X142.564 Y90.815 E.7957
G1 X142.564 Y91.463 E.02469
G1 X127.147 Y76.046 E.83062
G1 X126.499 Y76.046 E.02469
G1 X142.564 Y92.111 E.86553
G1 X142.564 Y92.759 E.02469
G1 X125.851 Y76.046 E.90044
G1 X125.203 Y76.046 E.02469
M73 P6 R8
G1 X142.564 Y93.407 E.93535
G1 X142.564 Y94.055 E.02469
G1 X124.555 Y76.046 E.97027
G1 X123.907 Y76.046 E.02469
G1 X142.564 Y94.703 E1.00518
G1 X142.564 Y95.351 E.02469
G1 X123.259 Y76.046 E1.04009
G1 X122.611 Y76.046 E.02469
G1 X142.564 Y95.999 E1.075
G1 X142.564 Y96.647 E.02469
G1 X121.963 Y76.046 E1.10991
G1 X121.315 Y76.046 E.02469
G1 X142.564 Y97.295 E1.14483
G1 X142.564 Y97.943 E.02469
M73 Q6 S9
G1 X120.667 Y76.046 E1.17974
G1 X120.019 Y76.046 E.02469
G1 X142.564 Y98.591 E1.21465
G1 X142.564 Y99.239 E.02469
G1 X119.371 Y76.046 E1.24956
G1 X118.724 Y76.046 E.02465
G1 X142.564 Y99.886 E1.28442
G1 X142.564 Y100.534 E.02469
M73 P7 R8
G1 X118.076 Y76.046 E1.31933
G1 X117.428 Y76.046 E.02469
G1 X142.564 Y101.182 E1.35424
G1 X142.564 Y101.83 E.02469
G1 X116.78 Y76.046 E1.38916
G1 X116.132 Y76.046 E.02469
G1 X142.564 Y102.478 E1.42407
G1 X142.564 Y103.126 E.02469
G1 X135.036 Y95.597 E.40561
G2 X133.893 Y94.454 I-1.083 J-.06 E.06948
G1 X115.484 Y76.046 E.99179
G1 X114.836 Y76.046 E.02469
G1 X133.245 Y94.454 E.99179
G1 X132.597 Y94.454 E.02469
M73 Q7 S9
G1 X114.188 Y76.046 E.99179
G1 X113.54 Y76.046 E.02469
G1 X131.949 Y94.454 E.99179
G1 X131.301 Y94.454 E.02469
G1 X112.892 Y76.046 E.99179
G1 X112.244 Y76.046 E.02469
M73 P8 R8
G1 X130.653 Y94.454 E.99179
G1 X130.005 Y94.454 E.02469
G1 X111.596 Y76.046 E.99179
G1 X110.948 Y76.046 E.02469
G1 X129.357 Y94.454 E.99179
G1 X128.709 Y94.454 E.02469
G1 X110.3 Y76.046 E.99179
G1 X109.652 Y76.046 E.02469
G1 X128.061 Y94.454 E.99179
G1 X127.413 Y94.454 E.02469
G1 X109.004 Y76.046 E.99179
G1 X108.356 Y76.046 E.02469
G1 X126.765 Y94.454 E.99179
G1 X126.117 Y94.454 E.02469
G1 X107.709 Y76.046 E.99176
G1 X107.436 Y76.046 E.0104
G1 X107.436 Y76.421 E.01429
G1 X125.469 Y94.454 E.97156
G1 X124.821 Y94.454 E.02469
G1 X107.436 Y77.069 E.93665
G1 X107.436 Y77.717 E.02469
M73 Q8 S9
G1 X124.173 Y94.454 E.90173
G1 X123.526 Y94.454 E.02465
M73 Q8 S8
G1 X107.436 Y78.364 E.86688
G1 X107.436 Y79.012 E.02469
M73 P9 R8
G1 X122.878 Y94.454 E.83196
G1 X122.23 Y94.454 E.02469
G1 X107.436 Y79.66 E.79705
G1 X107.436 Y80.308 E.02469
M73 P9 R7
G1 X121.582 Y94.454 E.76214
G1 X120.934 Y94.454 E.02469
G1 X107.436 Y80.956 E.72723
G1 X107.436 Y81.604 E.02469
G1 X120.286 Y94.454 E.69232
G1 X119.638 Y94.454 E.02469
G1 X107.436 Y82.252 E.6574
G1 X107.436 Y82.9 E.02469
G1 X118.99 Y94.454 E.62249
G1 X118.342 Y94.454 E.02469
G1 X107.436 Y83.548 E.58758
G1 X107.436 Y84.196 E.02469
G1 X117.735 Y94.496 E.5549
G2 X117.315 Y94.724 I.24 J.943 E.01839
G1 X107.436 Y84.844 E.53227
G1 X107.436 Y85.492 E.02469
G1 X117.037 Y95.093 E.51727
G2 X116.944 Y95.649 I1.186 J.484 E.02165
G1 X107.436 Y86.14 E.51229
G1 X107.436 Y86.788 E.02469
G1 X116.944 Y96.297 E.51229
G1 X116.944 Y96.944 E.02465
M73 Q9 S8
G1 X107.436 Y87.436 E.51226
G1 X107.436 Y88.084 E.02469
M73 P10 R7
G1 X116.944 Y97.592 E.51226
G1 X116.944 Y98.24 E.02469
G1 X107.436 Y88.732 E.51226
G1 X107.436 Y89.379 E.02465
G1 X116.944 Y98.888 E.51229
G1 X116.944 Y99.536 E.02469
G1 X107.436 Y90.027 E.51229
G1 X107.436 Y90.675 E.02469
G1 X116.944 Y100.184 E.51229
G1 X116.944 Y100.832 E.02469
G1 X107.436 Y91.323 E.51229
G1 X107.436 Y91.971 E.02469
G1 X116.944 Y101.48 E.51229
G1 X116.944 Y102.128 E.02469
G1 X107.436 Y92.619 E.51229
G1 X107.436 Y93.267 E.02469
G1 X116.944 Y102.776 E.51229
G1 X116.944 Y103.424 E.02469
G1 X107.436 Y93.915 E.51229
G1 X107.436 Y94.563 E.02469
G1 X116.944 Y104.072 E.51229
G1 X116.944 Y104.72 E.02469
G1 X107.436 Y95.211 E.51229
G1 X107.436 Y95.859 E.02469
G1 X116.944 Y105.368 E.51229
G1 X116.944 Y106.016 E.02469
G1 X107.436 Y96.507 E.51229
G1 X107.436 Y97.155 E.02469
G1 X116.944 Y106.664 E.51229
G1 X116.944 Y107.312 E.02469
G1 X107.436 Y97.803 E.51229
G1 X107.436 Y98.451 E.02469
M73 P11 R7
G1 X116.944 Y107.96 E.51229
G1 X116.944 Y108.607 E.02465
M73 Q10 S8
G1 X107.436 Y99.099 E.51226
G1 X107.436 Y99.747 E.02469
G1 X116.944 Y109.255 E.51226
G1 X116.944 Y109.903 E.02469
G1 X107.436 Y100.395 E.51226
G1 X107.436 Y101.042 E.02465
G1 X116.944 Y110.551 E.51229
G1 X116.944 Y111.199 E.02469
G1 X107.436 Y101.69 E.51229
G1 X107.436 Y102.338 E.02469
G1 X116.944 Y111.847 E.51229
G1 X116.944 Y112.495 E.02469
G1 X107.436 Y102.986 E.51229
G1 X107.436 Y103.634 E.02469
G1 X116.944 Y113.143 E.51229
G1 X116.944 Y113.791 E.02469
G1 X107.436 Y104.282 E.51229
G1 X107.436 Y104.93 E.02469
G1 X116.944 Y114.439 E.51229
G1 X116.944 Y115.087 E.02469
G1 X107.436 Y105.578 E.51229
G1 X107.436 Y106.226 E.02469
G1 X116.944 Y115.735 E.51229
G1 X116.944 Y116.383 E.02469
G1 X107.436 Y106.874 E.51229
G1 X107.436 Y107.522 E.02469
G1 X116.944 Y117.031 E.51229
G1 X116.944 Y117.679 E.02469
G1 X107.436 Y108.17 E.51229
G1 X107.436 Y108.818 E.02469
M73 P12 R7
G1 X116.944 Y118.327 E.51229
G1 X116.944 Y118.975 E.02469
G1 X107.436 Y109.466 E.51229
G1 X107.436 Y110.114 E.02469
M73 Q11 S8
G1 X116.944 Y119.622 E.51226
G1 X116.944 Y120.27 E.02469
G1 X107.436 Y110.762 E.51226
G1 X107.436 Y111.41 E.02469
G1 X116.944 Y120.918 E.51226
G1 X116.944 Y121.566 E.02469
G1 X107.436 Y112.058 E.51226
G1 X107.436 Y112.705 E.02465
G1 X117.15 Y122.42 E.52339
M204 P4000
G1 E-.7 F2100
G1 X131.914 Y100.391 Z.663 F18000
G1 X134.1 Y97.128 Z.723
G1 X134.83 Y96.04 Z.739
G1 Z.2 F720
G1 E.7 F1500
M204 P500
G1 F6000
G1 X142.564 Y103.774 E.41668
G1 X142.564 Y104.422 E.02469
G1 X135.036 Y96.893 E.40561
G1 X135.036 Y97.541 E.02469
G1 X142.564 Y105.07 E.40561
G1 X142.564 Y105.718 E.02469
G1 X135.036 Y98.189 E.40561
G1 X135.036 Y98.837 E.02469
G1 X142.564 Y106.366 E.40561
G1 X142.564 Y107.014 E.02469
G1 X135.036 Y99.485 E.40561
G1 X135.036 Y100.133 E.02469
G1 X142.564 Y107.662 E.40561
G1 X142.564 Y108.31 E.02469
G1 X135.036 Y100.781 E.40561
G1 X135.036 Y101.429 E.02469
M73 P13 R7
G1 X142.564 Y108.958 E.40561
G1 X142.564 Y109.606 E.02469
G1 X135.036 Y102.077 E.40561
G1 X135.036 Y102.725 E.02469
G1 X142.564 Y110.254 E.40561
G1 X142.564 Y110.901 E.02465
G1 X135.036 Y103.373 E.40558
G1 X135.036 Y104.021 E.02469
G1 X142.564 Y111.549 E.40558
G1 X142.564 Y112.197 E.02469
M73 Q12 S8
G1 X135.036 Y104.669 E.40558
G1 X135.036 Y105.317 E.02469
G1 X142.564 Y112.845 E.40558
G1 X142.564 Y113.493 E.02469
G1 X135.036 Y105.964 E.40561
G1 X135.036 Y106.612 E.02469
G1 X142.564 Y114.141 E.40561
G1 X142.564 Y114.789 E.02469
G1 X135.036 Y107.26 E.40561
G1 X135.036 Y107.908 E.02469
G1 X142.564 Y115.437 E.40561
G1 X142.564 Y116.085 E.02469
G1 X135.036 Y108.556 E.40561
G1 X135.036 Y109.204 E.02469
G1 X142.564 Y116.733 E.40561
G1 X142.564 Y117.381 E.02469
G1 X135.036 Y109.852 E.40561
G1 X135.036 Y110.5 E.02469
G1 X142.564 Y118.029 E.40561
G1 X142.564 Y118.677 E.02469
G1 X135.036 Y111.148 E.40561
G1 X135.036 Y111.796 E.02469
G1 X142.564 Y119.325 E.40561
G1 X142.564 Y119.973 E.02469
G1 X135.036 Y112.444 E.40561
G1 X135.036 Y113.092 E.02469
M73 P14 R7
G1 X142.564 Y120.621 E.40561
G1 X142.564 Y121.269 E.02469
G1 X135.036 Y113.74 E.40561
G1 X135.036 Y114.388 E.02469
G1 X142.564 Y121.917 E.40561
G1 X142.564 Y122.564 E.02465
G1 X135.036 Y115.036 E.40558
G1 X135.036 Y115.684 E.02469
G1 X142.564 Y123.212 E.40558
G1 X142.564 Y123.86 E.02469
G1 X135.036 Y116.332 E.40558
G1 X135.036 Y116.979 E.02465
G1 X142.564 Y124.508 E.40561
G1 X142.564 Y125.156 E.02469
M73 Q13 S8
G1 X135.036 Y117.627 E.40561
G1 X135.036 Y118.275 E.02469
G1 X142.564 Y125.804 E.40561
G1 X142.564 Y126.452 E.02469
G1 X135.036 Y118.923 E.40561
G1 X135.036 Y119.571 E.02469
G1 X142.564 Y127.1 E.40561
G1 X142.564 Y127.748 E.02469
G1 X135.036 Y120.219 E.40561
G1 X135.036 Y120.867 E.02469
G1 X142.564 Y128.396 E.40561
G1 X142.564 Y129.044 E.02469
G1 X135.036 Y121.515 E.40561
G1 X135.036 Y122.163 E.02469
G1 X142.564 Y129.692 E.40561
G1 X142.564 Y130.34 E.02469
G1 X135.036 Y122.811 E.40561
G3 X134.953 Y123.377 I-1.286 J.102 E.02198
G1 X142.564 Y130.988 E.41006
G1 X142.564 Y131.636 E.02469
G1 X134.688 Y123.76 E.42433
G3 X134.276 Y123.996 I-.719 J-.779 E.01824
M73 P15 R7
G1 X142.564 Y132.284 E.44653
G1 X142.564 Y132.932 E.02469
G1 X133.678 Y124.046 E.47875
G1 X133.031 Y124.046 E.02465
G1 X142.564 Y133.58 E.51363
G1 X142.564 Y133.954 E.01425
G1 X142.291 Y133.954 E.0104
G1 X132.383 Y124.046 E.53381
G1 X131.735 Y124.046 E.02469
G1 X141.643 Y133.954 E.53381
G1 X140.995 Y133.954 E.02469
G1 X131.087 Y124.046 E.53381
G1 X130.439 Y124.046 E.02469
G1 X140.348 Y133.954 E.53384
G1 X139.7 Y133.954 E.02469
M73 Q14 S8
G1 X129.791 Y124.046 E.53384
G1 X129.143 Y124.046 E.02469
G1 X139.052 Y133.954 E.53384
G1 X138.404 Y133.954 E.02469
G1 X128.495 Y124.046 E.53384
G1 X127.847 Y124.046 E.02469
G1 X137.756 Y133.954 E.53384
G1 X137.108 Y133.954 E.02469
G1 X127.199 Y124.046 E.53384
G1 X126.551 Y124.046 E.02469
G1 X136.46 Y133.954 E.53384
G1 X135.812 Y133.954 E.02469
G1 X125.903 Y124.046 E.53384
G1 X125.255 Y124.046 E.02469
G1 X135.164 Y133.954 E.53384
G1 X134.516 Y133.954 E.02469
M73 P16 R7
G1 X124.607 Y124.046 E.53384
G1 X123.959 Y124.046 E.02469
G1 X133.868 Y133.954 E.53384
G1 X133.22 Y133.954 E.02469
G1 X123.311 Y124.046 E.53384
G1 X122.663 Y124.046 E.02469
G1 X132.572 Y133.954 E.53384
G1 X131.924 Y133.954 E.02469
G1 X122.015 Y124.046 E.53384
G1 X121.368 Y124.046 E.02465
G1 X131.276 Y133.954 E.53381
G1 X130.628 Y133.954 E.02469
G1 X120.72 Y124.046 E.53381
G1 X120.072 Y124.046 E.02469
G1 X129.98 Y133.954 E.53381
G1 X129.333 Y133.954 E.02465
G1 X119.424 Y124.046 E.53384
G1 X118.776 Y124.046 E.02469
G1 X128.685 Y133.954 E.53384
G1 X128.037 Y133.954 E.02469
M73 Q15 S8
G1 X118.128 Y124.046 E.53384
G3 X117.115 Y123.554 I-.081 J-1.122 E.04494
G3 X116.944 Y122.862 I.997 J-.613 E.02759
G1 X107.436 Y113.353 E.51229
G1 X107.436 Y114.001 E.02469
G1 X127.389 Y133.954 E1.075
G1 X126.741 Y133.954 E.02469
G1 X107.436 Y114.649 E1.04009
G1 X107.436 Y115.297 E.02469
G1 X126.093 Y133.954 E1.00518
G1 X125.445 Y133.954 E.02469
M73 P17 R7
G1 X107.436 Y115.945 E.97027
G1 X107.436 Y116.593 E.02469
G1 X124.797 Y133.954 E.93535
G1 X124.149 Y133.954 E.02469
G1 X107.436 Y117.241 E.90044
G1 X107.436 Y117.889 E.02469
G1 X123.501 Y133.954 E.86553
G1 X122.853 Y133.954 E.02469
G1 X107.436 Y118.537 E.83062
G1 X107.436 Y119.185 E.02469
G1 X122.205 Y133.954 E.7957
G1 X121.557 Y133.954 E.02469
G1 X107.436 Y119.833 E.76079
G1 X107.436 Y120.481 E.02469
G1 X120.909 Y133.954 E.72588
G1 X120.261 Y133.954 E.02469
G1 X107.436 Y121.129 E.69097
M73 Q16 S8
G1 X107.436 Y121.777 E.02469
G1 X119.613 Y133.954 E.65606
