; generated by PrusaSlicer 2.9.2 on 2025-06-23 at 10:54:21 UTC


;
;

;
;

;
;

;
;
; 

; external perimeters extrusion width = 0.45mm
; perimeters extrusion width = 0.45mm
; infill extrusion width = 0.45mm
; solid infill extrusion width = 0.45mm
; top infill extrusion width = 0.42mm
; first layer extrusion width = 0.50mm

M73 P0 R18
M73 Q0 S20
M201 X4000 Y4000 Z200 E2500 ; sets maximum accelerations, mm/sec^2
M203 X300 Y300 Z40 E100 ; sets maximum feedrates, mm / sec
M204 P4000 R1200 T4000 ; sets acceleration (P, T) and retract acceleration (R), mm/sec^2
M205 X8.00 Y8.00 Z2.00 E10.00 ; sets the jerk limits, mm/sec
M205 S0 T0 ; sets the minimum extruding and travel feed rate, mm/sec

M486 S0
M486 Ariot-sensmate-case-darft2.stl
M486 S-1

;TYPE:Custom
M17 ; enable steppers
M862.1 P0.4 A0 F0 ; nozzle check
M862.3 P "MK4" ; printer model check
M862.5 P2 ; g-code level check
M862.6 P"Input shaper" ; FW feature check
M115 U6.2.4+8909

M555 X102.065 Y52.8143 W45.8711 H100.318

G90 ; use absolute coordinates
M83 ; extruder relative mode

M140 S60 ; set bed temp
M104 T0 S170 ; set extruder temp for bed leveling
M109 T0 R170 ; wait for temp

M84 E ; turn off E motor

G28 ; home all without mesh bed level

G1 X42 Y-4 Z5 F4800

M302 S155 ; lower cold extrusion limit to 155C


G1 E-2 F2400 ; retraction


M84 E ; turn off E motor

G29 P9 X10 Y-4 W32 H4

M106 S100

G0 Z40 F10000

M190 S60 ; wait for bed temp

M107

;
; MBL
;
M84 E ; turn off E motor
G29 P1 ; invalidate mbl & probe print area
G29 P1 X0 Y0 W50 H20 C ; probe near purge place
G29 P3.2 ; interpolate mbl probes
G29 P3.13 ; extrapolate mbl outside probe area
G29 A ; activate mbl

; prepare for purge
M104 S230
G0 X0 Y-4 Z15 F4800 ; move away and ready for the purge
M109 S230

G92 E0
M569 S0 E ; set spreadcycle mode for extruder

;
; Extrude purge line
;
G92 E0 ; reset extruder position
G1 E2 F2400 ; deretraction after the initial one before nozzle cleaning
G0 E7 X15 Z0.2 F500 ; purge
G0 X25 E4 F500 ; purge
G0 X35 E4 F650 ; purge
G0 X45 E4 F800 ; purge
G0 X48 Z0.05 F8000 ; wipe, move close to the bed
G0 X51 Z0.2 F8000 ; wipe, move quickly away from the bed

G92 E0
M221 S100 ; set flow to 100%
G21 ; set units to millimeters
G90 ; use absolute coordinates
M83 ; use relative distances for extrusion
M900 K0.05 ; Filament gcode


M572 S0.036 ; Filament gcode


M142 S36 ; set heatbreak target temp
M107
;LAYER_CHANGE
;Z:0.2
;HEIGHT:0.2
G1 E-.7 F2100
G1 Z.8 F720
M486 S0
G1 X142.214 Y81.564 F18000
G1 Z.2 F720
G1 E.7 F1500
M204 P500
;TYPE:Perimeter
;WIDTH:0.499999
G1 F2400
G1 X142.38 Y81.837 E.01214
G1 X142.407 Y82.029 E.00737
G1 X142.407 Y109.471 E1.04297
G1 X142.38 Y109.663 E.00737
G1 X142.194 Y109.968 E.01358
G1 X141.944 Y110.12 E.01112
G1 X141.721 Y110.157 E.00859
G1 X121.779 Y110.157 E.75792
G1 X121.478 Y110.088 E.01174
G1 X121.262 Y109.922 E.01035
G1 X121.114 Y109.64 E.0121
G1 X121.093 Y109.471 E.00647
G1 X121.093 Y82.029 E1.04297
G1 X121.102 Y81.919 E.00419
G1 X121.221 Y81.63 E.01188
G1 X121.457 Y81.423 E.01193
G3 X121.779 Y81.343 I.577 J1.63 E.01263
G1 X141.721 Y81.343 E.75792
G1 X141.944 Y81.38 E.00859
M73 P1 R18
G1 X142.175 Y81.521 E.01029
M204 P4000
M204 T4000
G1 X141.895 Y81.899 F18000
M204 P500
;TYPE:External perimeter
G1 F2400
G1 X141.95 Y82.029 E.00536
G1 X141.95 Y109.471 E1.04297
G1 X141.879 Y109.637 E.00686
G1 X141.721 Y109.7 E.00646
G1 X121.779 Y109.7 E.75792
G1 X121.618 Y109.634 E.00661
M73 Q1 S20
G1 X121.55 Y109.471 E.00671
G1 X121.553 Y81.992 E1.04437
G1 X121.648 Y81.841 E.00678
G1 X121.779 Y81.8 E.00522
G1 X141.721 Y81.8 E.75792
G1 X141.86 Y81.855 E.00568
M204 P4000
G1 X141.941 Y82.247 F18000
G1 E-.7 F2100
G1 X142.039 Y108.766 Z.663 F18000
G1 X142.053 Y112.693 Z.723
G1 X142.067 Y116.621 Z.766
G1 X142.096 Y124.475 Z.8
G1 X142.167 Y143.663
G1 Z.2 F720
G1 E.7 F1500
M204 P500
;TYPE:Perimeter
G1 F2400
G1 X142.105 Y143.685 E.0025
G1 X141.981 Y143.796 E.00633
G1 X141.564 Y144.291 E.0246
G1 X141.218 Y144.889 E.02626
G1 X140.327 Y145.817 E.04889
G1 X139.978 Y145.98 E.01464
G1 X139.503 Y146.416 E.02451
G1 X139.116 Y146.928 E.02439
G1 X137.737 Y148.064 E.0679
G1 X137.63 Y148.281 E.0092
G1 X137.28 Y148.471 E.01514
G2 X136.911 Y148.577 I.153 J1.228 E.01465
G1 X135.291 Y149.566 E.07214
G1 X135.094 Y149.818 E.01216
G1 X134.729 Y149.955 E.01482
G2 X134.359 Y150.006 I-.053 J.997 E.01428
G1 X132.637 Y150.757 E.0714
G1 X132.397 Y150.976 E.01235
G1 X132.015 Y151.082 E.01507
G2 X131.643 Y151.08 I-.191 J.94 E.01423
G1 X129.81 Y151.6 E.07241
G1 X129.571 Y151.777 E.0113
G1 X129.177 Y151.836 E.01514
G1 X129.092 Y151.803 E.00347
G1 X128.808 Y151.782 E.01082
G1 X127.914 Y151.905 E.0343
G1 X126.94 Y152.043 E.03739
G1 X126.67 Y152.186 E.01161
G3 X126.191 Y152.162 I-.2 J-.826 E.01848
G1 X125.911 Y152.1 E.0109
G1 X124.015 Y152.105 E.07206
G1 X123.736 Y152.206 E.01128
G1 X123.44 Y152.208 E.01125
G1 X122.991 Y152.029 E.01837
G1 X121.117 Y151.776 E.07187
G3 X120.527 Y151.813 I-.372 J-1.226 E.02267
G2 X120.11 Y151.571 I-1.584 J2.257 E.01835
G1 X118.293 Y151.065 E.07169
G3 X117.649 Y151.007 I-.194 J-1.433 E.02478
G2 X117.308 Y150.73 I-1.002 J.885 E.01677
G1 X115.6 Y149.99 E.07075
G1 X115.274 Y149.956 E.01246
G1 X114.906 Y149.818 E.01494
G2 X114.649 Y149.526 I-.674 J.333 E.01495
G1 X113.062 Y148.562 E.07057
G1 X112.736 Y148.479 E.01279
G1 X112.27 Y148.226 E.02015
G1 X111.6 Y147.734 E.03159
G1 X109.954 Y146.339 E.082
G1 X109.435 Y145.837 E.02744
G1 X108.169 Y144.434 E.07182
G2 X108.122 Y144.186 I-.264 J-.08 E.00997
G1 X106.344 Y141.666 E.11722
G1 X106.052 Y141.445 E.01392
G1 X104.798 Y139.025 E.10359
G1 X103.789 Y136.186 E.11451
G1 X103.179 Y133.249 E.11401
G1 X102.972 Y130.219 E.11543
G1 X102.972 Y57.722 E2.75534
G1 X147.005 Y57.739 E1.67353
G1 X147.028 Y130.22 E2.75473
G1 X146.86 Y132.792 E.09796
G1 X146.736 Y132.916 E.00666
G1 X146.656 Y133.296 E.01476
G1 X146.41 Y134.55 E.04857
G1 X146.296 Y135.659 E.04237
G1 X146.077 Y135.868 E.01151
G1 X145.949 Y136.242 E.01502
G2 X145.639 Y137.407 I5.234 J2.015 E.04591
G1 X145.411 Y138.377 E.03787
G1 X145.103 Y138.619 E.01489
G1 X145.044 Y138.717 E.00435
G1 X144.707 Y139.421 E.02966
G3 X144.141 Y141.059 I-15.583 J-4.464 E.0659
G1 X143.785 Y141.265 E.01563
G1 X143.703 Y141.365 E.00492
G1 X143.285 Y142.009 E.02918
G3 X142.531 Y143.531 I-13.974 J-5.977 E.06459
G1 X142.223 Y143.642 E.01244
M204 P4000
G1 X142.388 Y144.068 F18000
M204 P500
;TYPE:External perimeter
G1 F2400
G1 X142.325 Y144.097 E.00264
G1 X141.959 Y144.52 E.02126
G1 X141.587 Y145.163 E.02823
G1 X140.58 Y146.241 E.05607
G1 X140.28 Y146.323 E.01182
G1 X139.868 Y146.691 E.021
G1 X139.447 Y147.248 E.02654
G1 X138.107 Y148.338 E.06565
G3 X137.953 Y148.626 I-1.096 J-.404 E.01245
G1 X137.499 Y148.872 E.01963
G1 X137.146 Y148.969 E.01391
G1 X135.588 Y149.916 E.06929
G3 X135.375 Y150.186 I-1.31 J-.818 E.0131
G1 X134.89 Y150.383 E.0199
G1 X134.541 Y150.425 E.01336
G1 X132.847 Y151.163 E.07023
G3 X132.587 Y151.402 I-.43 J-.207 E.01375
G1 X132.103 Y151.531 E.01904
G1 X131.766 Y151.52 E.01281
G1 X130.001 Y152.015 E.06967
G3 X129.661 Y152.23 I-.458 J-.347 E.01562
G1 X129.092 Y152.302 E.0218
G2 X128.871 Y152.235 I-.244 J.406 E.00887
G1 X127.063 Y152.484 E.06936
G1 X126.888 Y152.607 E.00813
G3 X126.197 Y152.66 I-.521 J-2.273 E.02644
G1 X125.909 Y152.557 E.01162
G1 X124.087 Y152.557 E.06925
G1 X123.889 Y152.655 E.0084
G3 X123.185 Y152.622 I-.245 J-2.333 E.02689
G1 X122.928 Y152.482 E.01112
G1 X121.124 Y152.234 E.06921
G1 X120.908 Y152.302 E.00861
G3 X120.206 Y152.182 I.029 J-2.292 E.02718
G1 X119.982 Y152.01 E.01073
G1 X118.234 Y151.52 E.069
G1 X118.002 Y151.554 E.00891
G1 X117.549 Y151.453 E.01764
G1 X117.314 Y151.349 E.00977
G1 X117.128 Y151.15 E.01035
G1 X115.459 Y150.425 E.06916
G1 X115.22 Y150.425 E.00908
G1 X114.666 Y150.216 E.0225
G3 X114.414 Y149.918 I.833 J-.957 E.01489
G1 X112.856 Y148.97 E.06931
G1 X112.614 Y148.934 E.0093
G1 X112.024 Y148.613 E.02553
G1 X111.317 Y148.093 E.03336
M73 P2 R18
G1 X109.647 Y146.678 E.08319
G1 X109.106 Y146.155 E.0286
G1 X107.757 Y144.661 E.0765
G1 X107.749 Y144.449 E.00806
G1 X105.969 Y141.927 E.11732
G1 X105.721 Y141.799 E.01061
G1 X104.378 Y139.207 E.11095
G1 X103.348 Y136.31 E.11686
G1 X102.725 Y133.312 E.11638
G1 X102.515 Y130.235 E.11722
G1 X102.515 Y57.347 E2.7702
G1 X102.592 Y57.265 E.00428
M73 Q2 S20
G1 X147.462 Y57.282 E1.70534
G1 X147.485 Y130.235 E2.77267
G1 X147.31 Y132.915 E.10207
G1 X147.172 Y133.052 E.00739
G1 X146.865 Y134.596 E.05983
G1 X146.733 Y135.879 E.04902
G2 X146.5 Y136.043 I.126 J.428 E.01102
G1 X146.382 Y136.389 E.01389
G2 X146.087 Y137.501 I4.718 J1.847 E.04382
G1 X145.8 Y138.718 E.04752
G2 X145.454 Y138.919 I.157 J.669 E.01543
G1 X145.146 Y139.55 E.02669
G3 X144.499 Y141.407 I-18.099 J-5.261 E.07477
G2 X144.083 Y141.619 I.448 J1.392 E.01782
G1 X143.702 Y142.195 E.02625
G3 X142.865 Y143.877 I-15.748 J-6.796 E.07144
G3 X142.499 Y144.017 I-.685 J-1.232 E.01494
G1 X142.442 Y144.043 E.00238
M204 P4000
G1 X142.147 Y144.313 F18000
G1 E-.7 F2100
G1 X143.595 Y117.833 Z.663 F18000
G1 X143.81 Y113.912 Z.723
G1 X144.025 Y109.99 Z.766
G1 X144.454 Y102.147 Z.8
G1 X146.823 Y58.849
G1 Z.2 F720
G1 E.7 F1500
M204 P500
;TYPE:Solid infill
;WIDTH:0.501338
G1 F6000
G1 X146.101 Y58.127 E.03892
G1 X145.452 Y58.127 E.02474
G1 X146.617 Y59.291 E.06277
G1 X146.617 Y59.94 E.02474
G1 X144.804 Y58.126 E.09776
G1 X144.155 Y58.126 E.02474
G1 X146.617 Y60.588 E.13272
G1 X146.618 Y61.237 E.02474
G1 X143.507 Y58.126 E.1677
G1 X142.858 Y58.126 E.02474
G1 X146.618 Y61.886 E.20269
G1 X146.618 Y62.534 E.0247
G1 X142.209 Y58.125 E.23767
G1 X141.561 Y58.125 E.0247
G1 X146.618 Y63.183 E.27263
G1 X146.618 Y63.831 E.0247
G1 X140.912 Y58.125 E.30759
G1 X140.264 Y58.125 E.0247
G1 X146.619 Y64.48 E.34258
G1 X146.619 Y65.128 E.0247
G1 X139.615 Y58.124 E.37756
G1 X138.967 Y58.124 E.0247
G1 X146.619 Y65.777 E.41252
G1 X146.619 Y66.425 E.0247
G1 X138.318 Y58.124 E.44748
G1 X137.67 Y58.124 E.0247
G1 X146.619 Y67.074 E.48244
G1 X146.62 Y67.722 E.0247
G1 X137.021 Y58.123 E.51745
G1 X136.373 Y58.123 E.0247
G1 X146.62 Y68.371 E.55241
G1 X146.62 Y69.019 E.0247
G1 X135.724 Y58.123 E.58736
G1 X135.075 Y58.123 E.02474
G1 X146.62 Y69.668 E.62235
G1 X146.621 Y70.316 E.0247
G1 X134.427 Y58.122 E.65734
G1 X133.778 Y58.122 E.02474
M73 P3 R18
G1 X146.621 Y70.965 E.69232
G1 X146.621 Y71.613 E.0247
G1 X133.13 Y58.122 E.72725
G1 X132.481 Y58.122 E.02474
G1 X146.621 Y72.262 E.76224
G1 X146.621 Y72.91 E.0247
G1 X131.833 Y58.121 E.7972
G1 X131.184 Y58.121 E.02474
G1 X146.622 Y73.559 E.83221
G1 X146.622 Y74.207 E.0247
G1 X130.536 Y58.121 E.86714
G1 X129.887 Y58.121 E.02474
M73 Q3 S20
G1 X146.622 Y74.856 E.90212
G1 X146.622 Y75.504 E.0247
G1 X129.238 Y58.12 E.93711
G1 X128.59 Y58.12 E.0247
G1 X146.622 Y76.153 E.97207
G1 X146.623 Y76.801 E.0247
G1 X127.941 Y58.12 E1.00705
G1 X127.293 Y58.12 E.0247
G1 X146.623 Y77.45 E1.04201
G1 X146.623 Y78.098 E.0247
G1 X126.644 Y58.119 E1.077
G1 X125.996 Y58.119 E.0247
G1 X146.623 Y78.747 E1.11196
G1 X146.623 Y79.395 E.0247
G1 X125.347 Y58.119 E1.14691
G1 X124.699 Y58.119 E.0247
G1 X146.624 Y80.044 E1.1819
G1 X146.624 Y80.692 E.0247
G1 X124.05 Y58.118 E1.21688
G1 X123.401 Y58.118 E.02474
G1 X146.624 Y81.341 E1.25187
G1 X146.624 Y81.989 E.0247
G1 X122.753 Y58.118 E1.2868
G1 X122.104 Y58.118 E.02474
G1 X146.624 Y82.638 E1.32179
G1 X146.625 Y83.286 E.0247
M73 Q3 S19
G1 X121.456 Y58.117 E1.35677
G1 X120.807 Y58.117 E.02474
G1 X146.625 Y83.935 E1.39176
G1 X146.625 Y84.583 E.0247
G1 X120.159 Y58.117 E1.42669
G1 X119.51 Y58.117 E.02474
G1 X146.625 Y85.232 E1.46167
G1 X146.626 Y85.88 E.0247
M73 P4 R18
G1 X142.796 Y82.05 E.20646
G2 X141.887 Y80.967 I-1.088 J-.011 E.05867
G1 X141.7 Y80.954 E.00715
G1 X118.862 Y58.116 E1.23112
G1 X118.213 Y58.116 E.02474
G1 X141.051 Y80.954 E1.23112
G1 X140.403 Y80.954 E.0247
G1 X117.565 Y58.116 E1.23112
G1 X116.916 Y58.116 E.02474
G1 X139.755 Y80.954 E1.23114
G1 X139.106 Y80.954 E.02474
G1 X116.267 Y58.115 E1.23117
G1 X115.619 Y58.115 E.0247
G1 X138.458 Y80.954 E1.23117
G1 X137.81 Y80.954 E.0247
M73 Q4 S19
G1 X114.97 Y58.115 E1.2312
G1 X114.322 Y58.115 E.0247
G1 X137.161 Y80.954 E1.23117
G1 X136.513 Y80.954 E.0247
G1 X113.673 Y58.114 E1.23122
G1 X113.025 Y58.114 E.0247
G1 X135.865 Y80.954 E1.23122
G1 X135.217 Y80.954 E.0247
G1 X112.376 Y58.114 E1.23125
G1 X111.728 Y58.114 E.0247
G1 X134.568 Y80.954 E1.23122
G1 X133.92 Y80.955 E.0247
G1 X111.079 Y58.113 E1.2313
G1 X110.43 Y58.113 E.02474
G1 X133.272 Y80.955 E1.23133
G1 X132.624 Y80.955 E.0247
G1 X109.782 Y58.113 E1.23133
G1 X109.133 Y58.113 E.02474
G1 X131.975 Y80.955 E1.23133
G1 X131.327 Y80.955 E.0247
M73 P4 R17
G1 X108.485 Y58.112 E1.23136
G1 X107.836 Y58.112 E.02474
G1 X130.679 Y80.955 E1.23138
G1 X130.031 Y80.955 E.0247
G1 X107.188 Y58.112 E1.23138
G1 X106.539 Y58.112 E.02474
G1 X129.383 Y80.955 E1.23141
G1 X128.734 Y80.955 E.02474
G1 X105.891 Y58.111 E1.23141
G1 X105.242 Y58.111 E.02474
M73 P5 R17
G1 X128.086 Y80.955 E1.23144
G1 X127.438 Y80.955 E.0247
G1 X104.594 Y58.111 E1.23144
G1 X103.945 Y58.111 E.02474
G1 X126.79 Y80.956 E1.23149
G1 X126.142 Y80.956 E.0247
G1 X103.36 Y58.174 E1.2281
G1 X103.36 Y58.823 E.02474
G1 X125.493 Y80.956 E1.19311
G1 X124.845 Y80.956 E.0247
G1 X103.36 Y59.471 E1.15818
G1 X103.36 Y60.119 E.0247
G1 X124.197 Y80.956 E1.12325
G1 X123.549 Y80.956 E.0247
G1 X103.36 Y60.767 E1.08832
G1 X103.36 Y61.416 E.02474
G1 X122.9 Y80.956 E1.05333
G1 X122.252 Y80.956 E.0247
M73 Q5 S19
G1 X103.36 Y62.064 E1.0184
G1 X103.36 Y62.712 E.0247
G1 X121.62 Y80.972 E.98433
G2 X121.154 Y81.155 I.125 J1.004 E.01928
G1 X103.36 Y63.361 E.95921
G1 X103.36 Y64.009 E.0247
G1 X120.849 Y81.498 E.94277
G2 X120.706 Y82.003 I.939 J.537 E.02021
G1 X103.36 Y64.657 E.93506
G1 X103.36 Y65.306 E.02474
G1 X120.704 Y82.65 E.93495
G1 X120.704 Y83.298 E.0247
G1 X103.36 Y65.954 E.93495
G1 X103.36 Y66.602 E.0247
G1 X120.704 Y83.946 E.93495
G1 X120.704 Y84.595 E.02474
G1 X103.36 Y67.25 E.93498
G1 X103.36 Y67.899 E.02474
G1 X120.704 Y85.243 E.93495
G1 X120.704 Y85.891 E.0247
G1 X103.36 Y68.547 E.93495
G1 X103.36 Y69.195 E.0247
G1 X120.704 Y86.54 E.93498
G1 X120.704 Y87.188 E.0247
G1 X103.36 Y69.844 E.93495
G1 X103.36 Y70.492 E.0247
G1 X120.704 Y87.836 E.93495
G1 X120.704 Y88.484 E.0247
G1 X103.36 Y71.14 E.93495
G1 X103.36 Y71.789 E.02474
M73 P6 R17
G1 X120.704 Y89.133 E.93495
G1 X120.704 Y89.781 E.0247
G1 X103.36 Y72.437 E.93495
G1 X103.36 Y73.085 E.0247
G1 X120.704 Y90.429 E.93495
G1 X120.704 Y91.078 E.02474
G1 X103.36 Y73.733 E.93498
G1 X103.36 Y74.382 E.02474
G1 X120.704 Y91.726 E.93495
G1 X120.704 Y92.374 E.0247
G1 X103.36 Y75.03 E.93495
G1 X103.36 Y75.678 E.0247
G1 X120.704 Y93.023 E.93498
G1 X120.704 Y93.671 E.0247
G1 X103.36 Y76.327 E.93495
G1 X103.36 Y76.975 E.0247
G1 X120.704 Y94.319 E.93495
G1 X120.704 Y94.967 E.0247
G1 X103.36 Y77.623 E.93495
G1 X103.36 Y78.272 E.02474
G1 X120.704 Y95.616 E.93495
G1 X120.704 Y96.264 E.0247
G1 X103.36 Y78.92 E.93495
G1 X103.36 Y79.568 E.0247
M73 Q6 S19
G1 X120.704 Y96.912 E.93495
G1 X120.704 Y97.561 E.02474
G1 X103.36 Y80.216 E.93498
G1 X103.36 Y80.865 E.02474
G1 X120.704 Y98.209 E.93495
G1 X120.704 Y98.857 E.0247
G1 X103.36 Y81.513 E.93495
G1 X103.36 Y82.161 E.0247
G1 X120.704 Y99.506 E.93498
G1 X120.704 Y100.154 E.0247
G1 X103.36 Y82.81 E.93495
G1 X103.36 Y83.458 E.0247
G1 X120.704 Y100.802 E.93495
G1 X120.704 Y101.45 E.0247
G1 X103.36 Y84.106 E.93495
G1 X103.36 Y84.755 E.02474
G1 X120.704 Y102.099 E.93495
G1 X120.704 Y102.747 E.0247
G1 X103.36 Y85.403 E.93495
G1 X103.36 Y86.051 E.0247
G1 X120.704 Y103.395 E.93495
G1 X120.704 Y104.044 E.02474
G1 X103.36 Y86.699 E.93498
G1 X103.36 Y87.348 E.02474
G1 X120.704 Y104.692 E.93495
G1 X120.704 Y105.34 E.0247
M73 P7 R17
G1 X103.36 Y87.996 E.93495
G1 X103.36 Y88.644 E.0247
G1 X120.704 Y105.989 E.93498
G1 X120.704 Y106.637 E.0247
G1 X103.36 Y89.293 E.93495
G1 X103.36 Y89.941 E.0247
G1 X120.704 Y107.285 E.93495
G1 X120.704 Y107.934 E.02474
G1 X103.36 Y90.589 E.93498
G1 X103.36 Y91.238 E.02474
G1 X120.704 Y108.582 E.93495
G1 X120.704 Y109.23 E.0247
G1 X103.154 Y91.68 E.94606
M204 P4000
G1 E-.7 F2100
G1 X129.505 Y88.696 Z.663 F18000
G1 X133.408 Y88.255 Z.723
G1 X137.31 Y87.813 Z.766
G1 X145.115 Y86.929 Z.8
