; generated by PrusaSlicer 2.9.2 on 2025-06-30 at 15:15:49 UTC


;
;

;
;

;
;

;
;
; 

; external perimeters extrusion width = 0.45mm
; perimeters extrusion width = 0.45mm
; infill extrusion width = 0.45mm
; solid infill extrusion width = 0.45mm
; top infill extrusion width = 0.42mm
; first layer extrusion width = 0.50mm

M73 P0 R11
M73 Q0 S13
M201 X4000 Y4000 Z200 E2500 ; sets maximum accelerations, mm/sec^2
M203 X300 Y300 Z40 E100 ; sets maximum feedrates, mm / sec
M204 P4000 R1200 T4000 ; sets acceleration (P, T) and retract acceleration (R), mm/sec^2
M205 X8.00 Y8.00 Z2.00 E10.00 ; sets the jerk limits, mm/sec
M205 S0 T0 ; sets the minimum extruding and travel feed rate, mm/sec

M486 S0
M486 Ariot-po-2025-sensemate_newpcb-draft3.stl
M486 S-1

;TYPE:Custom
M17 ; enable steppers
M862.1 P0.4 A0 F0 ; nozzle check
M862.3 P "MK4" ; printer model check
M862.5 P2 ; g-code level check
M862.6 P"Input shaper" ; FW feature check
M115 U6.2.4+8909

M555 X106.14 Y70.75 W37.72 H64.5

G90 ; use absolute coordinates
M83 ; extruder relative mode

M140 S60 ; set bed temp
M104 T0 S170 ; set extruder temp for bed leveling
M109 T0 R170 ; wait for temp

M84 E ; turn off E motor

G28 ; home all without mesh bed level

G1 X42 Y-4 Z5 F4800

M302 S155 ; lower cold extrusion limit to 155C


G1 E-2 F2400 ; retraction


M84 E ; turn off E motor

G29 P9 X10 Y-4 W32 H4

M106 S100

G0 Z40 F10000

M190 S60 ; wait for bed temp

M107

;
; MBL
;
M84 E ; turn off E motor
G29 P1 ; invalidate mbl & probe print area
G29 P1 X0 Y0 W50 H20 C ; probe near purge place
G29 P3.2 ; interpolate mbl probes
G29 P3.13 ; extrapolate mbl outside probe area
G29 A ; activate mbl

; prepare for purge
M104 S230
G0 X0 Y-4 Z15 F4800 ; move away and ready for the purge
M109 S230

G92 E0
M569 S0 E ; set spreadcycle mode for extruder

;
; Extrude purge line
;
G92 E0 ; reset extruder position
G1 E2 F2400 ; deretraction after the initial one before nozzle cleaning
G0 E7 X15 Z0.2 F500 ; purge
G0 X25 E4 F500 ; purge
M73 Q0 S12
G0 X35 E4 F650 ; purge
G0 X45 E4 F800 ; purge
M73 P1 R11
G0 X48 Z0.05 F8000 ; wipe, move close to the bed
M73 Q1 S12
G0 X51 Z0.2 F8000 ; wipe, move quickly away from the bed

G92 E0
M221 S100 ; set flow to 100%
G21 ; set units to millimeters
G90 ; use absolute coordinates
M83 ; use relative distances for extrusion
M900 K0.05 ; Filament gcode


M572 S0.036 ; Filament gcode


M142 S36 ; set heatbreak target temp
M107
;LAYER_CHANGE
;Z:0.2
;HEIGHT:0.2
G1 E-.7 F2100
G1 Z.8 F720
M486 S0
G1 X115.567 Y114.961 F18000
G1 Z.2 F720
G1 E.7 F1500
M204 P500
;TYPE:Perimeter
;WIDTH:0.499999
G1 F2400
G1 X115.536 Y114.938 E.00147
G1 X115.386 Y114.682 E.01128
G1 X115.353 Y114.471 E.00812
G1 X115.353 Y87.029 E1.04297
G1 X115.432 Y86.708 E.01256
G1 X115.624 Y86.483 E.01124
G1 X115.92 Y86.353 E.01229
G1 X116.039 Y86.343 E.00454
G1 X131.981 Y86.343 E.6059
G1 X132.239 Y86.393 E.00999
G1 X132.446 Y86.524 E.00931
G1 X132.604 Y86.742 E.01023
G1 X132.667 Y87.029 E.01117
G1 X132.667 Y114.471 E1.04297
G1 X132.605 Y114.757 E.01112
G3 X132.316 Y115.07 I-.742 J-.395 E.01637
G1 X131.981 Y115.157 E.01315
G3 X130.135 Y115.135 I-.492 J-35.235 E.07017
;WIDTH:0.454864
G1 X129.462 Y115.112 E.02307
;WIDTH:0.409728
G1 X129.286 Y115.105 E.00537
;WIDTH:0.395308
G1 X127.94 Y115.087 E.03944
;WIDTH:0.363411
G1 X127.772 Y115.089 E.00448
;WIDTH:0.400213
G1 X127.32 Y115.107 E.01344
;WIDTH:0.437015
G1 X126.869 Y115.126 E.01479
;WIDTH:0.473816
G1 X126.417 Y115.144 E.01621
;WIDTH:0.486028
G1 X126.232 Y115.15 E.00682
;WIDTH:0.499999
G1 X116.039 Y115.157 E.3874
G1 X115.741 Y115.089 E.01162
G1 X115.616 Y114.997 E.0059
M204 P4000
M204 T4000
G1 X115.867 Y114.611 F18000
M204 P500
;TYPE:External perimeter
G1 F2400
G3 X115.81 Y114.471 I.359 J-.228 E.00578
G1 X115.81 Y87.029 E1.04297
G1 X115.877 Y86.867 E.00666
G1 X116.039 Y86.8 E.00666
G1 X131.981 Y86.8 E.6059
G1 X132.136 Y86.86 E.00632
G3 X132.21 Y87.029 I-.347 J.253 E.00707
G1 X132.21 Y114.471 E1.04297
G1 X132.157 Y114.618 E.00594
G1 X132.047 Y114.69 E.005
G1 X131.03 Y114.7 E.03865
G1 X116.039 Y114.7 E.56975
G1 X115.907 Y114.653 E.00533
M204 P4000
G1 X115.819 Y114.263 F18000
G1 E-.7 F2100
G1 X121.969 Y119.331 Z.339 F18000
G1 Z.2 F720
G1 E.7 F1500
M204 P500
;TYPE:Perimeter
G1 F2400
G1 X122 Y119.264 E.00281
G1 X122.694 Y118.111 E.05115
G1 X122.783 Y117.993 E.00562
G1 X123.709 Y117.016 E.05116
G1 X123.822 Y116.92 E.00564
G1 X124.935 Y116.165 E.05112
G1 X125.066 Y116.095 E.00565
G1 X126.319 Y115.604 E.05115
;WIDTH:0.486028
G1 X126.462 Y115.571 E.00541
;WIDTH:0.47298
G1 X126.907 Y115.516 E.01603
;WIDTH:0.436457
G1 X127.353 Y115.462 E.0147
;WIDTH:0.399934
G1 X127.798 Y115.407 E.01331
;WIDTH:0.363411
G1 X127.931 Y115.402 E.00355
;WIDTH:0.395308
G1 X129.276 Y115.457 E.03944
;WIDTH:0.409728
G1 X129.413 Y115.472 E.0042
;WIDTH:0.454864
G1 X130.067 Y115.63 E.02305
;WIDTH:0.499999
G1 X130.722 Y115.789 E.02562
G3 X132.171 Y116.557 I-10.783 J22.089 E.06234
M73 P2 R11
G1 X133.197 Y117.428 E.05115
G1 X133.699 Y118.062 E.03073
G3 X134.189 Y118.734 I-5.695 J4.674 E.03163
G1 X134.754 Y119.955 E.05113
G1 X134.802 Y120.096 E.00566
G1 X135.091 Y121.41 E.05113
G1 X135.107 Y121.557 E.00562
G1 X135.107 Y122.903 E.05116
G1 X135.091 Y123.05 E.00562
G1 X134.802 Y124.364 E.05113
G1 X134.754 Y124.505 E.00566
G1 X134.189 Y125.726 E.05113
G3 X133.299 Y126.924 I-27.984 J-19.873 E.05673
G1 X133.197 Y127.032 E.00565
G1 X132.171 Y127.903 E.05115
G1 X132.048 Y127.986 E.00564
G1 X130.859 Y128.617 E.05116
G1 X130.722 Y128.671 E.0056
G1 X129.36 Y129.046 E.05369
G1 X127.935 Y129.128 E.05425
G1 X127.787 Y129.12 E.00563
G1 X126.459 Y128.903 E.05114
G1 X126.316 Y128.863 E.00564
G1 X125.066 Y128.365 E.05114
G1 X124.935 Y128.295 E.00565
G1 X123.822 Y127.54 E.05112
G1 X123.709 Y127.444 E.00564
G1 X122.783 Y126.467 E.05116
G1 X122.694 Y126.349 E.00562
G1 X122 Y125.196 E.05115
G1 X121.717 Y124.406 E.03189
G3 X121.476 Y123.642 I6.435 J-2.446 E.03046
G1 X121.331 Y122.304 E.05115
G3 X121.508 Y120.673 I24.306 J1.819 E.06236
G1 X121.938 Y119.398 E.05114
G1 X121.944 Y119.385 E.00054
M204 P4000
G1 X122.384 Y119.523 F18000
M204 P500
;TYPE:External perimeter
G1 F2400
G1 X122.392 Y119.499 E.00096
G1 X123.085 Y118.346 E.05113
G1 X124.041 Y117.33 E.05302
G1 X125.192 Y116.543 E.05299
G1 X126.533 Y116.009 E.05486
G1 X127.91 Y115.788 E.053
G1 X129.303 Y115.869 E.05303
G1 X130.599 Y116.229 E.05112
G1 X131.875 Y116.905 E.05488
G1 X132.901 Y117.776 E.05115
G1 X133.749 Y118.884 E.05303
G1 X134.339 Y120.147 E.05298
G1 X134.644 Y121.508 E.05301
M73 Q2 S12
G1 X134.65 Y122.903 E.05302
G1 X134.355 Y124.266 E.053
G1 X133.774 Y125.534 E.05301
G1 X132.935 Y126.648 E.053
G1 X131.834 Y127.582 E.05487
G1 X130.599 Y128.231 E.05302
G1 X129.281 Y128.596 E.05198
G1 X127.91 Y128.672 E.05219
G1 X126.533 Y128.451 E.053
G1 X125.236 Y127.94 E.05298
G1 X124.078 Y127.162 E.05302
G1 X123.085 Y126.114 E.05487
G1 X122.392 Y124.961 E.05113
G1 X121.931 Y123.592 E.0549
G1 X121.785 Y122.255 E.05112
G1 X121.941 Y120.819 E.0549
G1 X122.364 Y119.579 E.04979
M204 P4000
G1 X122.557 Y119.229 F18000
G1 E-.7 F2100
G1 X133.8 Y95.211 Z.663 F18000
G1 X135.465 Y91.654 Z.723
G1 X137.13 Y88.097 Z.766
G1 X140.46 Y80.983 Z.8
G1 X142.953 Y75.657
G1 Z.2 F720
G1 E.7 F1500
M204 P500
;TYPE:Perimeter
G1 F2400
G1 X142.953 Y81.92 E.23803
G1 X142.953 Y134.343 E1.9924
G1 X107.047 Y134.343 E1.36465
G1 X107.047 Y75.657 E2.23044
G1 X142.893 Y75.657 E1.36237
M204 P4000
G1 X143.41 Y75.2 F18000
M73 P3 R11
M204 P500
;TYPE:External perimeter
G1 F2400
G1 X143.41 Y81.92 E.2554
G1 X143.41 Y134.8 E2.00977
G1 X106.59 Y134.8 E1.39939
M73 Q3 S12
G1 X106.59 Y75.2 E2.26517
G1 X143.35 Y75.2 E1.39711
M204 P4000
G1 X143.409 Y75.596 F18000
G1 E-.7 F2100
G1 X141.844 Y75.84 Z.228 F18000
G1 Z.2 F720
G1 E.7 F1500
M204 P500
;TYPE:Solid infill
;WIDTH:0.501085
G1 F6000
G1 X142.564 Y76.561 E.03882
G1 X142.564 Y77.208 E.02465
G1 X141.402 Y76.046 E.0626
G1 X140.754 Y76.046 E.02469
G1 X142.564 Y77.856 E.09752
G1 X142.564 Y78.504 E.02469
G1 X140.106 Y76.046 E.13243
G1 X139.458 Y76.046 E.02469
G1 X142.564 Y79.152 E.16734
G1 X142.564 Y79.8 E.02469
G1 X138.81 Y76.046 E.20225
G1 X138.162 Y76.046 E.02469
G1 X142.564 Y80.448 E.23717
G1 X142.564 Y81.096 E.02469
G1 X137.514 Y76.046 E.27208
G1 X136.866 Y76.046 E.02469
G1 X142.564 Y81.744 E.30699
G1 X142.564 Y82.392 E.02469
M73 P4 R11
G1 X136.218 Y76.046 E.3419
G1 X135.57 Y76.046 E.02469
G1 X142.564 Y83.04 E.37681
G1 X142.564 Y83.688 E.02469
G1 X134.922 Y76.046 E.41173
G1 X134.274 Y76.046 E.02469
G1 X142.564 Y84.336 E.44664
G1 X142.564 Y84.984 E.02469
G1 X133.626 Y76.046 E.48155
G1 X132.978 Y76.046 E.02469
G1 X142.564 Y85.632 E.51646
G1 X142.564 Y86.28 E.02469
G1 X132.33 Y76.046 E.55137
G1 X131.682 Y76.046 E.02469
G1 X142.564 Y86.928 E.58629
G1 X142.564 Y87.576 E.02469
M73 Q4 S12
G1 X131.034 Y76.046 E.6212
G1 X130.387 Y76.046 E.02465
G1 X142.564 Y88.223 E.65606
G1 X142.564 Y88.871 E.02469
G1 X129.739 Y76.046 E.69097
G1 X129.091 Y76.046 E.02469
G1 X142.564 Y89.519 E.72588
G1 X142.564 Y90.167 E.02469
G1 X128.443 Y76.046 E.76079
G1 X127.795 Y76.046 E.02469
G1 X142.564 Y90.815 E.7957
G1 X142.564 Y91.463 E.02469
G1 X127.147 Y76.046 E.83062
G1 X126.499 Y76.046 E.02469
G1 X142.564 Y92.111 E.86553
G1 X142.564 Y92.759 E.02469
G1 X125.851 Y76.046 E.90044
G1 X125.203 Y76.046 E.02469
G1 X142.564 Y93.407 E.93535
G1 X142.564 Y94.055 E.02469
G1 X124.555 Y76.046 E.97027
G1 X123.907 Y76.046 E.02469
M73 P5 R11
G1 X142.564 Y94.703 E1.00518
G1 X142.564 Y95.351 E.02469
G1 X123.259 Y76.046 E1.04009
G1 X122.611 Y76.046 E.02469
G1 X142.564 Y95.999 E1.075
G1 X142.564 Y96.647 E.02469
G1 X133.056 Y87.138 E.51229
G2 X131.992 Y85.954 I-1.085 J-.095 E.068
G1 X131.872 Y85.954 E.00457
G1 X121.963 Y76.046 E.53384
G1 X121.315 Y76.046 E.02469
G1 X131.224 Y85.954 E.53384
G1 X130.576 Y85.954 E.02469
G1 X120.667 Y76.046 E.53384
G1 X120.019 Y76.046 E.02469
G1 X129.928 Y85.954 E.53384
G1 X129.28 Y85.954 E.02469
G1 X119.371 Y76.046 E.53384
G1 X118.724 Y76.046 E.02465
M73 Q5 S12
G1 X128.632 Y85.954 E.53381
G1 X127.984 Y85.954 E.02469
G1 X118.076 Y76.046 E.53381
G1 X117.428 Y76.046 E.02469
G1 X127.336 Y85.954 E.53381
G1 X126.689 Y85.954 E.02465
G1 X116.78 Y76.046 E.53384
G1 X116.132 Y76.046 E.02469
G1 X126.041 Y85.954 E.53384
G1 X125.393 Y85.954 E.02469
G1 X115.484 Y76.046 E.53384
G1 X114.836 Y76.046 E.02469
G1 X124.745 Y85.954 E.53384
G1 X124.097 Y85.954 E.02469
G1 X114.188 Y76.046 E.53384
G1 X113.54 Y76.046 E.02469
G1 X123.449 Y85.954 E.53384
G1 X122.801 Y85.954 E.02469
G1 X112.892 Y76.046 E.53384
G1 X112.244 Y76.046 E.02469
G1 X122.153 Y85.954 E.53384
M73 P6 R11
G1 X121.505 Y85.954 E.02469
G1 X111.596 Y76.046 E.53384
G1 X110.948 Y76.046 E.02469
G1 X120.857 Y85.954 E.53384
G1 X120.209 Y85.954 E.02469
G1 X110.3 Y76.046 E.53384
G1 X109.652 Y76.046 E.02469
G1 X119.561 Y85.954 E.53384
G1 X118.913 Y85.954 E.02469
G1 X109.004 Y76.046 E.53384
G1 X108.356 Y76.046 E.02469
G1 X118.265 Y85.954 E.53384
G1 X117.617 Y85.954 E.02469
G1 X107.709 Y76.046 E.53381
G1 X107.436 Y76.046 E.0104
G1 X107.436 Y76.421 E.01429
G1 X116.969 Y85.954 E.51361
G1 X116.321 Y85.954 E.02469
G1 X107.436 Y77.069 E.47869
G1 X107.436 Y77.717 E.02469
M73 P6 R10
G1 X115.726 Y86.007 E.44664
G2 X115.311 Y86.24 I.278 J.978 E.0183
G1 X107.436 Y78.364 E.42431
G1 X107.436 Y79.012 E.02469
G1 X115.047 Y86.623 E.41006
G2 X114.964 Y87.189 I1.205 J.464 E.02198
M73 Q6 S12
G1 X107.436 Y79.66 E.40561
G1 X107.436 Y80.308 E.02469
G1 X114.964 Y87.837 E.40561
G1 X114.964 Y88.485 E.02469
G1 X107.436 Y80.956 E.40561
G1 X107.436 Y81.604 E.02469
G1 X114.964 Y89.133 E.40561
G1 X114.964 Y89.781 E.02469
G1 X107.436 Y82.252 E.40561
G1 X107.436 Y82.9 E.02469
G1 X114.964 Y90.429 E.40561
G1 X114.964 Y91.077 E.02469
G1 X107.436 Y83.548 E.40561
G1 X107.436 Y84.196 E.02469
G1 X114.964 Y91.725 E.40561
G1 X114.964 Y92.373 E.02469
G1 X107.436 Y84.844 E.40561
G1 X107.436 Y85.492 E.02469
G1 X114.964 Y93.021 E.40561
G1 X114.964 Y93.669 E.02469
M73 P7 R10
G1 X107.436 Y86.14 E.40561
G1 X107.436 Y86.788 E.02469
G1 X114.964 Y94.317 E.40561
G1 X114.964 Y94.964 E.02465
G1 X107.436 Y87.436 E.40558
G1 X107.436 Y88.084 E.02469
G1 X114.964 Y95.612 E.40558
G1 X114.964 Y96.26 E.02469
G1 X107.436 Y88.732 E.40558
G1 X107.436 Y89.379 E.02465
G1 X114.964 Y96.908 E.40561
G1 X114.964 Y97.556 E.02469
G1 X107.436 Y90.027 E.40561
G1 X107.436 Y90.675 E.02469
G1 X114.964 Y98.204 E.40561
G1 X114.964 Y98.852 E.02469
G1 X107.436 Y91.323 E.40561
G1 X107.436 Y91.971 E.02469
G1 X114.964 Y99.5 E.40561
G1 X114.964 Y100.148 E.02469
G1 X107.436 Y92.619 E.40561
G1 X107.436 Y93.267 E.02469
G1 X114.964 Y100.796 E.40561
G1 X114.964 Y101.444 E.02469
G1 X107.436 Y93.915 E.40561
G1 X107.436 Y94.563 E.02469
G1 X114.964 Y102.092 E.40561
G1 X114.964 Y102.74 E.02469
G1 X107.436 Y95.211 E.40561
G1 X107.436 Y95.859 E.02469
G1 X114.964 Y103.388 E.40561
G1 X114.964 Y104.036 E.02469
M73 Q7 S12
G1 X107.436 Y96.507 E.40561
G1 X107.436 Y97.155 E.02469
G1 X114.964 Y104.684 E.40561
G1 X114.964 Y105.332 E.02469
G1 X107.436 Y97.803 E.40561
G1 X107.436 Y98.451 E.02469
G1 X114.964 Y105.98 E.40561
G1 X114.964 Y106.627 E.02465
G1 X107.436 Y99.099 E.40558
G1 X107.436 Y99.747 E.02469
G1 X114.964 Y107.275 E.40558
G1 X114.964 Y107.923 E.02469
G1 X107.436 Y100.395 E.40558
G1 X107.436 Y101.042 E.02465
M73 P8 R10
G1 X114.964 Y108.571 E.40561
G1 X114.964 Y109.219 E.02469
G1 X107.436 Y101.69 E.40561
G1 X107.436 Y102.338 E.02469
G1 X114.964 Y109.867 E.40561
G1 X114.964 Y110.515 E.02469
G1 X107.436 Y102.986 E.40561
G1 X107.436 Y103.634 E.02469
G1 X114.964 Y111.163 E.40561
G1 X114.964 Y111.811 E.02469
G1 X107.436 Y104.282 E.40561
G1 X107.436 Y104.93 E.02469
G1 X114.964 Y112.459 E.40561
G1 X114.964 Y113.107 E.02469
G1 X107.436 Y105.578 E.40561
G1 X107.436 Y106.226 E.02469
G1 X115.17 Y113.961 E.41671
M204 P4000
G1 E-.7 F2100
G1 X124.972 Y115.339 Z.373 F18000
G1 Z.2 F720
G1 E.7 F1500
M204 P500
G1 F6000
G1 X125.243 Y115.61 E.0146
G2 X124.789 Y115.804 I.914 J2.772 E.01883
G1 X124.531 Y115.546 E.0139
G1 X123.883 Y115.546 E.02469
G1 X124.397 Y116.06 E.02769
G1 X124.011 Y116.322 E.01777
G1 X123.235 Y115.546 E.04181
G1 X122.587 Y115.546 E.02469
G1 X123.625 Y116.584 E.05592
G2 X123.288 Y116.895 I1.254 J1.696 E.0175
G1 X121.939 Y115.546 E.07268
G1 X121.291 Y115.546 E.02469
G1 X122.973 Y117.228 E.09062
G1 X122.658 Y117.56 E.01744
G1 X120.643 Y115.546 E.10853
G1 X119.995 Y115.546 E.02469
G1 X122.36 Y117.911 E.12742
G1 X122.117 Y118.316 E.01799
G1 X119.347 Y115.546 E.14924
G1 X118.699 Y115.546 E.02469
G1 X121.874 Y118.72 E.17103
G1 X121.635 Y119.13 E.01808
G1 X118.051 Y115.546 E.19309
G1 X117.403 Y115.546 E.02469
G1 X121.459 Y119.602 E.21852
G1 X121.296 Y120.086 E.01946
G1 X116.549 Y115.34 E.25573
M204 P4000
G1 E-.7 F2100
G1 X121.306 Y120.745 Z.326 F18000
G1 Z.2 F720
G1 E.7 F1500
M204 P500
G1 F6000
G1 X116.107 Y115.546 E.2801
G3 X114.964 Y114.403 I-.06 J-1.083 E.06948
G1 X107.436 Y106.874 E.40561
G1 X107.436 Y107.522 E.02469
M73 Q8 S12
G1 X121.052 Y121.138 E.73359
G1 X120.99 Y121.725 E.02249
G1 X107.436 Y108.17 E.73027
G1 X107.436 Y108.818 E.02469
G1 X120.948 Y122.33 E.72798
G1 X121.024 Y123.054 E.02773
G1 X107.436 Y109.466 E.73208
G1 X107.436 Y110.114 E.02469
M73 P9 R10
G1 X121.112 Y123.79 E.73682
G1 X121.137 Y123.903 E.00441
G1 X121.427 Y124.753 E.03421
M73 Q8 S11
G1 X107.23 Y110.556 E.76489
M204 P4000
G1 E-.7 F2100
G1 X132.123 Y101.412 Z.663 F18000
G1 X135.809 Y100.057 Z.723
G1 X139.496 Y98.703 Z.766
G1 X142.77 Y97.5 Z.789
G1 Z.2 F720
G1 E.7 F1500
M204 P500
G1 F6000
G1 X133.056 Y87.786 E.52336
G1 X133.055 Y88.434 E.02469
G1 X142.564 Y97.943 E.51231
G1 X142.564 Y98.591 E.02469
G1 X133.055 Y89.082 E.51231
G1 X133.055 Y89.729 E.02465
G1 X142.564 Y99.239 E.51234
G1 X142.564 Y99.886 E.02465
G1 X133.055 Y90.377 E.51231
G1 X133.055 Y91.025 E.02469
G1 X142.564 Y100.534 E.51231
G1 X142.564 Y101.182 E.02469
G1 X133.055 Y91.673 E.51231
G1 X133.055 Y92.321 E.02469
G1 X142.564 Y101.83 E.51231
G1 X142.564 Y102.478 E.02469
G1 X133.055 Y92.969 E.51231
G1 X133.055 Y93.617 E.02469
G1 X142.564 Y103.126 E.51231
G1 X142.564 Y103.774 E.02469
G1 X133.055 Y94.265 E.51231
G1 X133.055 Y94.912 E.02465
G1 X142.564 Y104.422 E.51234
G1 X142.564 Y105.07 E.02469
