; generated by PrusaSlicer 2.9.2 on 2025-06-30 at 16:34:48 UTC


;
;

;
;

;
;

;
;
; 

; external perimeters extrusion width = 0.45mm
; perimeters extrusion width = 0.45mm
; infill extrusion width = 0.45mm
; solid infill extrusion width = 0.45mm
; top infill extrusion width = 0.42mm
; support material extrusion width = 0.36mm
; first layer extrusion width = 0.50mm

M73 P0 R11
M73 Q0 S12
M201 X4000 Y4000 Z200 E2500 ; sets maximum accelerations, mm/sec^2
M203 X300 Y300 Z40 E100 ; sets maximum feedrates, mm / sec
M204 P4000 R1200 T4000 ; sets acceleration (P, T) and retract acceleration (R), mm/sec^2
M205 X8.00 Y8.00 Z2.00 E10.00 ; sets the jerk limits, mm/sec
M205 S0 T0 ; sets the minimum extruding and travel feed rate, mm/sec

M486 S0
M486 Ariot-po-2025-sensemate_newpcb-draft4.stl
M486 S-1

;TYPE:Custom
M17 ; enable steppers
M862.1 P0.4 A0 F0 ; nozzle check
M862.3 P "MK4" ; printer model check
M862.5 P2 ; g-code level check
M862.6 P"Input shaper" ; FW feature check
M115 U6.2.4+8909

M555 X106.14 Y70.75 W37.72 H64.5

G90 ; use absolute coordinates
M83 ; extruder relative mode

M140 S60 ; set bed temp
M104 T0 S170 ; set extruder temp for bed leveling
M109 T0 R170 ; wait for temp

M84 E ; turn off E motor

G28 ; home all without mesh bed level

G1 X42 Y-4 Z5 F4800

M302 S155 ; lower cold extrusion limit to 155C


G1 E-2 F2400 ; retraction


M84 E ; turn off E motor

G29 P9 X10 Y-4 W32 H4

M106 S100

G0 Z40 F10000

M190 S60 ; wait for bed temp

M107

;
; MBL
;
M84 E ; turn off E motor
G29 P1 ; invalidate mbl & probe print area
G29 P1 X0 Y0 W50 H20 C ; probe near purge place
G29 P3.2 ; interpolate mbl probes
G29 P3.13 ; extrapolate mbl outside probe area
G29 A ; activate mbl

; prepare for purge
M104 S230
G0 X0 Y-4 Z15 F4800 ; move away and ready for the purge
M109 S230

G92 E0
M569 S0 E ; set spreadcycle mode for extruder

;
; Extrude purge line
;
G92 E0 ; reset extruder position
G1 E2 F2400 ; deretraction after the initial one before nozzle cleaning
G0 E7 X15 Z0.2 F500 ; purge
G0 X25 E4 F500 ; purge
G0 X35 E4 F650 ; purge
G0 X45 E4 F800 ; purge
M73 P1 R11
G0 X48 Z0.05 F8000 ; wipe, move close to the bed
M73 Q1 S12
G0 X51 Z0.2 F8000 ; wipe, move quickly away from the bed

G92 E0
M221 S100 ; set flow to 100%
G21 ; set units to millimeters
G90 ; use absolute coordinates
M83 ; use relative distances for extrusion
M900 K0.05 ; Filament gcode


M572 S0.036 ; Filament gcode


M142 S36 ; set heatbreak target temp
M107
;LAYER_CHANGE
;Z:0.2
;HEIGHT:0.2
G1 E-.7 F2100
G1 Z.8 F720
M486 S0
G1 X134.441 Y123.442 F18000
G1 Z.2 F720
G1 E.7 F1500
M204 P500
;TYPE:Perimeter
;WIDTH:0.499999
G1 F2400
G1 X134.376 Y123.517 E.00377
G1 X134.08 Y123.647 E.01229
G1 X133.961 Y123.657 E.00454
G1 X118.019 Y123.657 E.6059
G1 X117.761 Y123.607 E.00999
G1 X117.554 Y123.476 E.00931
G1 X117.396 Y123.258 E.01023
G1 X117.333 Y122.971 E.01117
G1 X117.333 Y95.529 E1.04297
G1 X117.395 Y95.243 E.01112
G3 X117.684 Y94.93 I.742 J.395 E.01637
G1 X118.019 Y94.843 E.01315
G3 X119.865 Y94.865 I.492 J35.233 E.07017
;WIDTH:0.454865
G1 X120.538 Y94.888 E.02307
;WIDTH:0.40973
G1 X120.714 Y94.895 E.00537
;WIDTH:0.395308
G1 X122.06 Y94.913 E.03944
;WIDTH:0.363413
G1 X122.228 Y94.911 E.00448
;WIDTH:0.400215
G1 X122.68 Y94.893 E.01344
;WIDTH:0.437016
G1 X123.131 Y94.874 E.01479
;WIDTH:0.473817
G1 X123.583 Y94.856 E.01621
;WIDTH:0.486029
G1 X123.768 Y94.85 E.00682
;WIDTH:0.499999
G1 X133.961 Y94.843 E.3874
G1 X134.259 Y94.911 E.01162
G1 X134.464 Y95.062 E.00968
G1 X134.614 Y95.318 E.01128
G1 X134.647 Y95.529 E.00812
G1 X134.647 Y122.971 E1.04297
G1 X134.568 Y123.292 E.01256
G1 X134.479 Y123.396 E.0052
M204 P4000
M204 T4000
G1 X134.091 Y123.146 F18000
M204 P500
;TYPE:External perimeter
G1 F2400
G1 X133.961 Y123.2 E.00535
G1 X118.019 Y123.2 E.6059
G1 X117.864 Y123.14 E.00632
G3 X117.79 Y122.971 I.347 J-.253 E.00707
G1 X117.79 Y95.529 E1.04297
G3 X117.907 Y95.329 I.289 J.035 E.00906
G1 X118.019 Y95.3 E.0044
G1 X133.961 Y95.3 E.6059
G1 X134.107 Y95.352 E.00589
G3 X134.19 Y95.529 I-.333 J.265 E.0075
G1 X134.19 Y122.971 E1.04297
G1 X134.133 Y123.11 E.00571
M204 P4000
G1 X133.741 Y123.192 F18000
G1 E-.7 F2100
G1 X122.03 Y99.398 Z.663 F18000
G1 X120.296 Y95.875 Z.723
G1 X118.562 Y92.351 Z.766
G1 X115.222 Y85.565 Z.8
G1 Z.2 F720
G1 E.7 F1500
M204 P500
;TYPE:Perimeter
G1 F2400
G1 X115.246 Y85.495 E.00281
G1 X115.811 Y84.274 E.05113
G3 X116.701 Y83.076 I27.987 J19.875 E.05673
G1 X116.803 Y82.968 E.00565
G1 X117.829 Y82.097 E.05115
G1 X117.952 Y82.014 E.00564
M73 P2 R11
G1 X119.141 Y81.383 E.05116
G1 X119.278 Y81.329 E.0056
G1 X120.575 Y80.969 E.05116
G1 X120.721 Y80.945 E.00562
G1 X122.065 Y80.872 E.05116
G1 X122.213 Y80.88 E.00563
G1 X123.541 Y81.097 E.05114
G1 X123.684 Y81.137 E.00564
G1 X124.934 Y81.635 E.05114
G1 X125.065 Y81.705 E.00565
G1 X126.178 Y82.46 E.05112
G1 X126.291 Y82.556 E.00564
G1 X127.217 Y83.533 E.05116
G1 X127.306 Y83.651 E.00562
G1 X128 Y84.804 E.05115
G1 X128.283 Y85.594 E.03189
G3 X128.524 Y86.358 I-6.435 J2.446 E.03046
G1 X128.669 Y87.696 E.05115
G3 X128.492 Y89.327 I-24.306 J-1.819 E.06236
G1 X128.062 Y90.602 E.05114
G1 X128 Y90.736 E.00561
G1 X127.306 Y91.889 E.05115
G1 X127.217 Y92.007 E.00562
G1 X126.291 Y92.984 E.05116
G1 X126.178 Y93.08 E.00564
G1 X125.065 Y93.835 E.05112
G1 X124.934 Y93.905 E.00565
G1 X123.681 Y94.396 E.05115
;WIDTH:0.486029
G1 X123.539 Y94.429 E.00537
;WIDTH:0.472982
G1 X123.093 Y94.484 E.01607
;WIDTH:0.436459
G1 X122.647 Y94.538 E.0147
;WIDTH:0.399936
G1 X122.202 Y94.593 E.01331
;WIDTH:0.363413
G1 X122.069 Y94.598 E.00355
;WIDTH:0.395308
G1 X120.724 Y94.543 E.03944
;WIDTH:0.40973
G1 X120.587 Y94.528 E.0042
;WIDTH:0.454865
G1 X119.933 Y94.37 E.02305
;WIDTH:0.499999
G1 X119.278 Y94.211 E.02562
G3 X117.829 Y93.443 I10.782 J-22.087 E.06234
G1 X116.803 Y92.572 E.05115
M73 Q2 S12
G1 X116.301 Y91.938 E.03073
G3 X115.811 Y91.266 I5.695 J-4.674 E.03163
G1 X115.246 Y90.045 E.05113
G1 X115.198 Y89.904 E.00566
G1 X114.909 Y88.59 E.05113
G1 X114.893 Y88.443 E.00562
G1 X114.893 Y87.097 E.05116
G1 X114.909 Y86.95 E.00562
G1 X115.198 Y85.636 E.05113
G1 X115.203 Y85.622 E.00057
M204 P4000
G1 X115.655 Y85.712 F18000
M204 P500
;TYPE:External perimeter
G1 F2400
G1 X116.226 Y84.466 E.05209
G1 X117.099 Y83.316 E.05487
G1 X118.166 Y82.418 E.053
G1 X119.401 Y81.769 E.05302
G1 X120.746 Y81.401 E.053
G1 X122.09 Y81.328 E.05116
G1 X123.467 Y81.549 E.053
G1 X124.764 Y82.06 E.05298
G1 X125.959 Y82.87 E.05487
G1 X126.915 Y83.886 E.05302
G1 X127.608 Y85.039 E.05113
G1 X128.059 Y86.359 E.05302
G1 X128.215 Y87.745 E.05301
G1 X128.059 Y89.181 E.0549
G1 X127.608 Y90.501 E.05302
G1 X126.885 Y91.693 E.05299
G1 X125.922 Y92.702 E.05301
G1 X124.764 Y93.48 E.05302
G1 X123.467 Y93.991 E.05298
G1 X122.09 Y94.212 E.053
G1 X120.697 Y94.131 E.05303
G1 X119.401 Y93.771 E.05112
G1 X118.125 Y93.095 E.05488
G1 X117.099 Y92.224 E.05115
G1 X116.251 Y91.116 E.05303
G1 X115.661 Y89.853 E.05298
G1 X115.356 Y88.492 E.05301
G1 X115.35 Y87.097 E.05302
G1 X115.637 Y85.769 E.05164
M204 P4000
G1 X115.798 Y85.402 F18000
G1 E-.7 F2100
G1 X140.758 Y76.445 Z.663 F18000
G1 X142.953 Y75.657 Z.701
G1 Z.2 F720
G1 E.7 F1500
M204 P500
;TYPE:Perimeter
G1 F2400
G1 X142.953 Y83.189 E.28626
G1 X142.953 Y134.343 E1.94417
G1 X107.047 Y134.343 E1.36465
G1 X107.047 Y75.657 E2.23044
G1 X142.893 Y75.657 E1.36237
M204 P4000
G1 X143.41 Y75.2 F18000
M73 P3 R11
M204 P500
;TYPE:External perimeter
G1 F2400
G1 X143.41 Y83.189 E.30363
G1 X143.41 Y134.8 E1.96154
G1 X106.59 Y134.8 E1.39939
M73 Q3 S12
G1 X106.59 Y75.2 E2.26517
G1 X143.35 Y75.2 E1.39711
M204 P4000
G1 X143.409 Y75.596 F18000
G1 X142.77 Y76.766
M204 P500
;TYPE:Solid infill
;WIDTH:0.501085
G1 F6000
G1 X142.05 Y76.046 E.03879
G1 X141.402 Y76.046 E.02469
G1 X142.564 Y77.208 E.0626
G1 X142.564 Y77.856 E.02469
G1 X140.754 Y76.046 E.09752
G1 X140.106 Y76.046 E.02469
G1 X142.564 Y78.504 E.13243
G1 X142.564 Y79.152 E.02469
G1 X139.458 Y76.046 E.16734
G1 X138.81 Y76.046 E.02469
G1 X142.564 Y79.8 E.20225
G1 X142.564 Y80.448 E.02469
G1 X138.162 Y76.046 E.23717
G1 X137.514 Y76.046 E.02469
G1 X142.564 Y81.096 E.27208
G1 X142.564 Y81.744 E.02469
G1 X136.866 Y76.046 E.30699
G1 X136.218 Y76.046 E.02469
G1 X142.564 Y82.392 E.3419
G1 X142.564 Y83.04 E.02469
M73 P4 R11
G1 X135.57 Y76.046 E.37681
G1 X134.922 Y76.046 E.02469
G1 X142.564 Y83.688 E.41173
G1 X142.564 Y84.336 E.02469
G1 X134.274 Y76.046 E.44664
G1 X133.626 Y76.046 E.02469
G1 X142.564 Y84.984 E.48155
G1 X142.564 Y85.632 E.02469
G1 X132.978 Y76.046 E.51646
G1 X132.33 Y76.046 E.02469
G1 X142.564 Y86.28 E.55137
G1 X142.564 Y86.928 E.02469
M73 Q4 S12
G1 X131.682 Y76.046 E.58629
G1 X131.034 Y76.046 E.02469
G1 X142.564 Y87.576 E.6212
G1 X142.564 Y88.223 E.02465
G1 X130.387 Y76.046 E.65606
G1 X129.739 Y76.046 E.02469
G1 X142.564 Y88.871 E.69097
G1 X142.564 Y89.519 E.02469
G1 X129.091 Y76.046 E.72588
G1 X128.443 Y76.046 E.02469
G1 X142.564 Y90.167 E.76079
G1 X142.564 Y90.815 E.02469
G1 X127.795 Y76.046 E.7957
G1 X127.147 Y76.046 E.02469
G1 X142.564 Y91.463 E.83062
G1 X142.564 Y92.111 E.02469
G1 X126.499 Y76.046 E.86553
G1 X125.851 Y76.046 E.02469
G1 X142.564 Y92.759 E.90044
G1 X142.564 Y93.407 E.02469
G1 X125.203 Y76.046 E.93535
G1 X124.555 Y76.046 E.02469
G1 X142.564 Y94.055 E.97027
G1 X142.564 Y94.703 E.02469
G1 X123.907 Y76.046 E1.00518
M73 P5 R11
G1 X123.259 Y76.046 E.02469
G1 X142.564 Y95.351 E1.04009
G1 X142.564 Y95.999 E.02469
G1 X122.611 Y76.046 E1.075
G1 X121.963 Y76.046 E.02469
G1 X142.564 Y96.647 E1.10991
G1 X142.564 Y97.295 E.02469
G1 X121.315 Y76.046 E1.14483
G1 X120.667 Y76.046 E.02469
G1 X142.564 Y97.943 E1.17974
G1 X142.564 Y98.591 E.02469
M73 Q5 S12
G1 X127.957 Y83.983 E.787
G2 X127.505 Y83.272 I-4.959 J2.653 E.03213
G1 X126.567 Y82.282 E.05196
G1 X126.404 Y82.143 E.00816
G1 X125.513 Y81.54 E.04099
G1 X120.019 Y76.046 E.296
G1 X119.371 Y76.046 E.02469
G1 X124.284 Y80.958 E.26467
G2 X123.612 Y80.715 I-1.875 J4.14 E.02725
G1 X123.351 Y80.673 E.01007
G1 X118.724 Y76.046 E.24929
G1 X118.076 Y76.046 E.02469
G1 X122.576 Y80.546 E.24245
G2 X121.876 Y80.494 I-.519 J2.25 E.02685
G1 X117.428 Y76.046 E.23964
G1 X116.78 Y76.046 E.02469
G1 X121.264 Y80.53 E.24158
G1 X120.652 Y80.566 E.02336
G1 X116.132 Y76.046 E.24352
G1 X115.484 Y76.046 E.02469
G1 X120.13 Y80.692 E.25031
G1 X119.622 Y80.831 E.02006
G1 X114.836 Y76.046 E.25783
G1 X114.188 Y76.046 E.02469
G1 X119.118 Y80.976 E.26561
G2 X118.681 Y81.187 I1.061 J2.747 E.01851
G1 X113.54 Y76.046 E.27698
G1 X112.892 Y76.046 E.02469
G1 X118.258 Y81.412 E.2891
G1 X117.835 Y81.636 E.01823
G1 X112.244 Y76.046 E.3012
G1 X111.596 Y76.046 E.02469
G1 X117.455 Y81.905 E.31566
G1 X117.105 Y82.202 E.01749
G1 X110.948 Y76.046 E.33169
G1 X110.3 Y76.046 E.02469
G1 X116.755 Y82.5 E.34775
G2 X116.418 Y82.812 I1.62 J2.085 E.01752
M73 P6 R11
G1 X109.652 Y76.046 E.36453
G1 X109.004 Y76.046 E.02469
G1 X116.136 Y83.177 E.38422
G1 X115.856 Y83.545 E.01762
G1 X108.356 Y76.046 E.40405
G1 X107.709 Y76.046 E.02465
G1 X115.577 Y83.914 E.4239
G2 X115.353 Y84.338 I2.174 J1.416 E.01829
G1 X107.436 Y76.421 E.42654
G1 X107.436 Y77.069 E.02469
G1 X115.148 Y84.781 E.4155
G1 X114.943 Y85.224 E.0186
G1 X107.436 Y77.717 E.40445
G1 X107.436 Y78.364 E.02465
G1 X114.784 Y85.713 E.39591
G1 X114.667 Y86.244 E.02071
G1 X107.436 Y79.012 E.38961
G1 X107.436 Y79.66 E.02469
G1 X114.55 Y86.775 E.38331
G2 X114.505 Y87.377 I2.199 J.468 E.02307
G1 X107.436 Y80.308 E.38085
G1 X107.436 Y80.956 E.02469
M73 Q6 S12
G1 X114.505 Y88.025 E.38085
G2 X114.528 Y88.665 I3.89 J.179 E.02443
G1 X114.537 Y88.705 E.00156
G1 X107.436 Y81.604 E.38258
G1 X107.436 Y82.252 E.02469
G1 X114.72 Y89.536 E.39244
G2 X114.889 Y90.2 I4.219 J-.726 E.02613
G1 X115.022 Y90.486 E.01202
G1 X107.436 Y82.9 E.40871
G1 X107.436 Y83.548 E.02469
G1 X118.342 Y94.454 E.58758
G2 X117.734 Y94.495 I-.137 J2.542 E.02327
G1 X107.436 Y84.196 E.55485
G1 X107.436 Y84.844 E.02469
G1 X117.322 Y94.73 E.53262
G1 X117.196 Y94.835 E.00625
G1 X117.037 Y95.093 E.01155
G1 X107.436 Y85.492 E.51727
G1 X107.436 Y86.14 E.02469
G1 X116.947 Y95.652 E.51245
G1 X116.947 Y96.299 E.02465
G1 X107.436 Y86.788 E.51242
G1 X107.436 Y87.436 E.02469
M73 P6 R10
G1 X116.947 Y96.947 E.51242
G1 X116.947 Y97.595 E.02469
G1 X107.436 Y88.084 E.51242
G1 X107.436 Y88.732 E.02469
M73 P7 R10
G1 X116.947 Y98.243 E.51242
G1 X116.947 Y98.891 E.02469
G1 X107.436 Y89.379 E.51245
G1 X107.436 Y90.027 E.02469
G1 X116.947 Y99.539 E.51245
G1 X116.947 Y100.187 E.02469
G1 X107.436 Y90.675 E.51245
G1 X107.436 Y91.323 E.02469
G1 X116.947 Y100.835 E.51245
G1 X116.947 Y101.482 E.02465
G1 X107.436 Y91.971 E.51242
G1 X107.436 Y92.619 E.02469
G1 X116.947 Y102.13 E.51242
G1 X116.947 Y102.778 E.02469
G1 X107.436 Y93.267 E.51242
G1 X107.436 Y93.915 E.02469
G1 X116.947 Y103.426 E.51242
G1 X116.946 Y104.074 E.02469
G1 X107.436 Y94.563 E.51239
G1 X107.436 Y95.211 E.02469
G1 X116.946 Y104.722 E.51239
G1 X116.946 Y105.37 E.02469
M73 Q6 S11
G1 X107.436 Y95.859 E.51239
G1 X107.436 Y96.507 E.02469
M73 Q7 S11
G1 X116.946 Y106.018 E.51239
G1 X116.946 Y106.665 E.02465
G1 X107.436 Y97.155 E.51237
G1 X107.436 Y97.803 E.02469
G1 X116.946 Y107.313 E.51237
G1 X116.946 Y107.961 E.02469
G1 X107.436 Y98.451 E.51237
G1 X107.436 Y99.099 E.02469
G1 X116.946 Y108.609 E.51237
G1 X116.946 Y109.257 E.02469
G1 X107.436 Y99.747 E.51237
G1 X107.436 Y100.395 E.02469
G1 X116.946 Y109.905 E.51237
G1 X116.946 Y110.553 E.02469
G1 X107.436 Y101.042 E.51239
G1 X107.436 Y101.69 E.02469
G1 X116.946 Y111.2 E.51237
G1 X116.946 Y111.848 E.02469
M73 P8 R10
G1 X107.436 Y102.338 E.51237
G1 X107.436 Y102.986 E.02469
G1 X116.946 Y112.496 E.51237
G1 X116.945 Y113.144 E.02469
G1 X107.436 Y103.634 E.51234
G1 X107.436 Y104.282 E.02469
G1 X116.945 Y113.792 E.51234
G1 X116.945 Y114.44 E.02469
G1 X107.436 Y104.93 E.51234
G1 X107.436 Y105.578 E.02469
G1 X116.945 Y115.088 E.51234
G1 X116.945 Y115.736 E.02469
G1 X107.436 Y106.226 E.51234
G1 X107.436 Y106.874 E.02469
G1 X116.945 Y116.383 E.51231
G1 X116.945 Y117.031 E.02469
G1 X107.436 Y107.522 E.51231
G1 X107.436 Y108.17 E.02469
G1 X116.945 Y117.679 E.51231
G1 X116.945 Y118.327 E.02469
G1 X107.436 Y108.818 E.51231
G1 X107.436 Y109.466 E.02469
G1 X116.945 Y118.975 E.51231
G1 X116.945 Y119.623 E.02469
G1 X107.436 Y110.114 E.51231
G1 X107.436 Y110.762 E.02469
G1 X116.945 Y120.271 E.51231
G1 X116.945 Y120.919 E.02469
M73 Q8 S11
G1 X107.436 Y111.41 E.51231
G1 X107.436 Y112.058 E.02469
G1 X116.945 Y121.566 E.51229
G1 X116.944 Y122.214 E.02469
G1 X107.23 Y112.5 E.52336
M204 P4000
G1 E-.7 F2100
G1 X132.123 Y103.355 Z.663 F18000
G1 X135.809 Y102.001 Z.723
G1 X139.496 Y100.647 Z.766
G1 X142.77 Y99.444 Z.789
G1 Z.2 F720
G1 E.7 F1500
M204 P500
G1 F6000
G1 X128.573 Y85.247 E.76489
G1 X128.863 Y86.097 E.03421
G1 X128.888 Y86.21 E.00441
G1 X142.564 Y99.886 E.73682
G1 X142.564 Y100.534 E.02469
G1 X128.975 Y86.945 E.73213
G1 X129.05 Y87.668 E.02769
M73 P9 R10
G1 X142.564 Y101.182 E.72809
G1 X142.564 Y101.83 E.02469
G1 X129.011 Y88.277 E.73019
G1 X128.949 Y88.862 E.02241
G1 X142.564 Y102.478 E.73356
G1 X142.564 Y103.126 E.02469
G1 X135.036 Y95.597 E.40561
G2 X133.893 Y94.454 I-1.083 J-.06 E.06948
G1 X128.866 Y89.428 E.27081
G1 X128.704 Y89.914 E.01952
G1 X133.245 Y94.454 E.24463
G1 X132.597 Y94.454 E.02469
G1 X128.541 Y90.398 E.21852
G3 X128.365 Y90.87 I-3.093 J-.885 E.01921
G1 X131.949 Y94.454 E.19309
G1 X131.301 Y94.454 E.02469
G1 X128.126 Y91.28 E.17103
G1 X127.883 Y91.685 E.01799
G1 X130.653 Y94.454 E.14921
G1 X130.005 Y94.454 E.02469
G1 X127.64 Y92.089 E.12742
G3 X127.342 Y92.44 I-1.995 J-1.39 E.01757
G1 X129.357 Y94.454 E.10853
G1 X128.709 Y94.454 E.02469
G1 X127.027 Y92.772 E.09062
G1 X126.712 Y93.105 E.01746
G1 X128.061 Y94.454 E.07268
G1 X127.413 Y94.454 E.02469
G1 X126.375 Y93.416 E.05592
G1 X125.989 Y93.678 E.01777
G1 X126.765 Y94.454 E.04181
G1 X126.117 Y94.454 E.02469
G1 X125.603 Y93.94 E.02769
G1 X125.211 Y94.196 E.01784
G1 X125.469 Y94.454 E.0139
G1 X124.824 Y94.457 E.02457
G1 X124.598 Y94.231 E.01218
M204 P4000
G1 E-.7 F2100
G1 X134.83 Y96.04 Z.381 F18000
G1 Z.2 F720
G1 E.7 F1500
M204 P500
G1 F6000
G1 X142.564 Y103.774 E.41668
G1 X142.564 Y104.422 E.02469
G1 X135.036 Y96.893 E.40561
G1 X135.036 Y97.541 E.02469
