; generated by PrusaSlicer 2.9.2 on 2025-07-02 at 16:19:10 UTC


;
;

;
;

;
;

;
;
; 

; external perimeters extrusion width = 0.45mm
; perimeters extrusion width = 0.45mm
; infill extrusion width = 0.45mm
; solid infill extrusion width = 0.45mm
; top infill extrusion width = 0.42mm
; first layer extrusion width = 0.50mm

M73 P0 R30
M73 Q0 S32
M201 X4000 Y4000 Z200 E2500 ; sets maximum accelerations, mm/sec^2
M203 X300 Y300 Z40 E100 ; sets maximum feedrates, mm / sec
M204 P4000 R1200 T4000 ; sets acceleration (P, T) and retract acceleration (R), mm/sec^2
M205 X8.00 Y8.00 Z2.00 E10.00 ; sets the jerk limits, mm/sec
M205 S0 T0 ; sets the minimum extruding and travel feed rate, mm/sec

M486 S0
M486 Ariot-po-2025-sensemate_newpcb_top-Fusion_darf1.stl
M486 S-1

;TYPE:Custom
M17 ; enable steppers
M862.1 P0.4 A0 F0 ; nozzle check
M862.3 P "MK4" ; printer model check
M862.5 P2 ; g-code level check
M862.6 P"Input shaper" ; FW feature check
M115 U6.2.4+8909

M555 X106.705 Y71.3146 W36.5909 H63.3709

G90 ; use absolute coordinates
M83 ; extruder relative mode

M140 S60 ; set bed temp
M104 T0 S170 ; set extruder temp for bed leveling
M109 T0 R170 ; wait for temp

M84 E ; turn off E motor

G28 ; home all without mesh bed level

G1 X42 Y-4 Z5 F4800

M302 S155 ; lower cold extrusion limit to 155C


G1 E-2 F2400 ; retraction


M84 E ; turn off E motor

G29 P9 X10 Y-4 W32 H4

M106 S100

G0 Z40 F10000

M190 S60 ; wait for bed temp

M107

;
; MBL
;
M84 E ; turn off E motor
G29 P1 ; invalidate mbl & probe print area
G29 P1 X0 Y0 W50 H20 C ; probe near purge place
G29 P3.2 ; interpolate mbl probes
G29 P3.13 ; extrapolate mbl outside probe area
G29 A ; activate mbl

; prepare for purge
M104 S230
G0 X0 Y-4 Z15 F4800 ; move away and ready for the purge
M109 S230

G92 E0
M569 S0 E ; set spreadcycle mode for extruder

;
; Extrude purge line
;
G92 E0 ; reset extruder position
G1 E2 F2400 ; deretraction after the initial one before nozzle cleaning
G0 E7 X15 Z0.2 F500 ; purge
G0 X25 E4 F500 ; purge
M73 P0 R29
G0 X35 E4 F650 ; purge
G0 X45 E4 F800 ; purge
G0 X48 Z0.05 F8000 ; wipe, move close to the bed
G0 X51 Z0.2 F8000 ; wipe, move quickly away from the bed

G92 E0
M221 S100 ; set flow to 100%
G21 ; set units to millimeters
G90 ; use absolute coordinates
M83 ; use relative distances for extrusion
M900 K0.05 ; Filament gcode


M572 S0.036 ; Filament gcode


M142 S36 ; set heatbreak target temp
M107
;LAYER_CHANGE
;Z:0.2
;HEIGHT:0.2
G1 E-.7 F2100
G1 Z.8 F720
M486 S0
G1 X142.284 Y76.222 F18000
G1 Z.2 F720
G1 E.7 F1500
M204 P500
;TYPE:Perimeter
;WIDTH:0.499999
G1 F2400
G1 X142.388 Y76.222 E.00395
G1 X142.388 Y133.778 E2.18749
G1 X107.612 Y133.778 E1.32171
G1 X107.612 Y76.222 E2.18749
G1 X142.224 Y76.222 E1.31547
M204 P4000
M204 T4000
G1 X142.808 Y75.812 F18000
M204 P500
;TYPE:External perimeter
G1 F2400
G1 X142.845 Y75.829 E.00155
G1 X142.845 Y134.154 E2.21672
G1 X142.752 Y134.235 E.00469
M73 Q0 S31
G1 X107.245 Y134.235 E1.34949
G1 X107.155 Y134.163 E.00438
G1 X107.155 Y75.908 E2.21406
G1 X107.219 Y75.765 E.00595
G1 X142.702 Y75.765 E1.34858
G1 X142.754 Y75.788 E.00216
M73 P1 R29
M204 P4000
G1 X142.843 Y76.177 F18000
G1 X142.206 Y77.334
M204 P500
;TYPE:Solid infill
;WIDTH:0.502757
G1 F6000
G1 X141.481 Y76.61 E.03918
G1 X140.831 Y76.61 E.02485
G1 X142 Y77.779 E.06321
G1 X142 Y78.429 E.02485
G1 X140.181 Y76.61 E.09836
G1 X139.53 Y76.61 E.02489
G1 X142 Y79.08 E.13356
G1 X142 Y79.73 E.02485
G1 X138.88 Y76.61 E.16871
M73 Q1 S31
G1 X138.23 Y76.61 E.02485
G1 X142 Y80.38 E.20386
G1 X142 Y81.03 E.02485
G1 X137.58 Y76.61 E.239
G1 X136.929 Y76.61 E.02489
G1 X142 Y81.681 E.27421
G1 X142 Y82.331 E.02485
G1 X136.279 Y76.61 E.30935
G1 X135.629 Y76.61 E.02485
G1 X142 Y82.981 E.3445
G1 X142 Y83.632 E.02489
G1 X134.978 Y76.61 E.3797
G1 X134.328 Y76.61 E.02485
G1 X142 Y84.282 E.41485
G1 X142 Y84.932 E.02485
G1 X133.678 Y76.61 E.45
G1 X133.027 Y76.61 E.02489
G1 X142 Y85.583 E.4852
G1 X142 Y86.233 E.02485
G1 X132.377 Y76.61 E.52035
G1 X131.727 Y76.61 E.02485
G1 X142 Y86.883 E.5555
G1 X142 Y87.534 E.02489
G1 X131.076 Y76.61 E.5907
G1 X130.426 Y76.61 E.02485
G1 X142 Y88.184 E.62584
G1 X142 Y88.834 E.02485
G1 X129.776 Y76.61 E.66099
G1 X129.126 Y76.61 E.02485
G1 X142 Y89.484 E.69614
G1 X142 Y90.135 E.02489
G1 X128.475 Y76.61 E.73134
G1 X127.825 Y76.61 E.02485
G1 X142 Y90.785 E.76649
G1 X142 Y91.435 E.02485
G1 X127.175 Y76.61 E.80164
G1 X126.524 Y76.61 E.02489
G1 X142 Y92.086 E.83684
G1 X142 Y92.736 E.02485
G1 X125.874 Y76.61 E.87199
G1 X125.224 Y76.61 E.02485
G1 X142 Y93.386 E.90713
G1 X142 Y94.037 E.02489
G1 X124.573 Y76.61 E.94234
G1 X123.923 Y76.61 E.02485
G1 X142 Y94.687 E.97748
G1 X142 Y95.337 E.02485
G1 X123.273 Y76.61 E1.01263
G1 X122.622 Y76.61 E.02489
G1 X142 Y95.988 E1.04783
G1 X142 Y96.638 E.02485
G1 X121.972 Y76.61 E1.08298
G1 X121.322 Y76.61 E.02485
G1 X142 Y97.288 E1.11813
G1 X142 Y97.938 E.02485
G1 X120.672 Y76.61 E1.15328
G1 X120.021 Y76.61 E.02489
G1 X142 Y98.589 E1.18848
G1 X142 Y99.239 E.02485
G1 X119.371 Y76.61 E1.22362
G1 X118.721 Y76.61 E.02485
G1 X142 Y99.889 E1.25877
G1 X142 Y100.54 E.02489
G1 X118.07 Y76.61 E1.29397
G1 X117.42 Y76.61 E.02485
G1 X142 Y101.19 E1.32912
G1 X142 Y101.84 E.02485
G1 X116.77 Y76.61 E1.36427
G1 X116.119 Y76.61 E.02489
G1 X142 Y102.491 E1.39947
G1 X142 Y103.141 E.02485
G1 X115.469 Y76.61 E1.43462
G1 X114.819 Y76.61 E.02485
G1 X142 Y103.791 E1.46977
G1 X142 Y104.442 E.02489
G1 X114.168 Y76.61 E1.50497
G1 X113.518 Y76.61 E.02485
G1 X142 Y105.092 E1.54012
G1 X142 Y105.742 E.02485
G1 X112.868 Y76.61 E1.57526
G1 X112.218 Y76.61 E.02485
M73 P2 R29
G1 X142 Y106.392 E1.61041
G1 X142 Y107.043 E.02489
G1 X111.567 Y76.61 E1.64561
G1 X110.917 Y76.61 E.02485
G1 X142 Y107.693 E1.68076
G1 X142 Y108.343 E.02485
M73 Q2 S31
G1 X110.267 Y76.61 E1.71591
G1 X109.616 Y76.61 E.02489
G1 X142 Y108.994 E1.75111
G1 X142 Y109.644 E.02485
G1 X108.966 Y76.61 E1.78626
G1 X108.316 Y76.61 E.02485
G1 X142 Y110.294 E1.82141
G1 X142 Y110.945 E.02489
G1 X108 Y76.945 E1.83849
G1 X108 Y77.595 E.02485
G1 X142 Y111.595 E1.83849
G1 X142 Y112.245 E.02485
G1 X108 Y78.246 E1.83847
G1 X108 Y78.896 E.02485
G1 X142 Y112.896 E1.83849
G1 X142 Y113.546 E.02485
G1 X108 Y79.546 E1.83849
G1 X108 Y80.197 E.02489
G1 X142 Y114.196 E1.83847
G1 X142 Y114.846 E.02485
G1 X108 Y80.847 E1.83847
G1 X108 Y81.497 E.02485
G1 X142 Y115.497 E1.83849
G1 X142 Y116.147 E.02485
G1 X108 Y82.147 E1.83849
G1 X108 Y82.798 E.02489
G1 X142 Y116.797 E1.83847
G1 X142 Y117.448 E.02489
G1 X108 Y83.448 E1.83849
G1 X108 Y84.098 E.02485
G1 X142 Y118.098 E1.83849
G1 X142 Y118.748 E.02485
G1 X108 Y84.749 E1.83847
G1 X108 Y85.399 E.02485
G1 X142 Y119.399 E1.83849
G1 X142 Y120.049 E.02485
G1 X108 Y86.049 E1.83849
G1 X108 Y86.7 E.02489
G1 X142 Y120.699 E1.83847
G1 X142 Y121.35 E.02489
G1 X108 Y87.35 E1.83849
G1 X108 Y88 E.02485
G1 X142 Y122 E1.83849
G1 X142 Y122.65 E.02485
G1 X108 Y88.651 E1.83847
G1 X108 Y89.301 E.02485
M73 P3 R29
G1 X142 Y123.3 E1.83847
G1 X142 Y123.951 E.02489
G1 X108 Y89.951 E1.83849
G1 X108 Y90.601 E.02485
G1 X142 Y124.601 E1.83849
G1 X142 Y125.251 E.02485
G1 X108 Y91.252 E1.83847
G1 X108 Y91.902 E.02485
G1 X142 Y125.902 E1.83849
G1 X142 Y126.552 E.02485
G1 X108 Y92.552 E1.83849
G1 X108 Y93.203 E.02489
M73 Q3 S31
G1 X142 Y127.202 E1.83847
G1 X142 Y127.853 E.02489
G1 X108 Y93.853 E1.83849
G1 X108 Y94.503 E.02485
G1 X142 Y128.503 E1.83849
G1 X142 Y129.153 E.02485
G1 X108 Y95.154 E1.83847
G1 X108 Y95.804 E.02485
G1 X142 Y129.804 E1.83849
G1 X142 Y130.454 E.02485
G1 X108 Y96.454 E1.83849
G1 X108 Y97.105 E.02489
G1 X142 Y131.104 E1.83847
G1 X142 Y131.754 E.02485
G1 X108 Y97.755 E1.83847
G1 X108 Y98.405 E.02485
G1 X142 Y132.405 E1.83849
G1 X142 Y133.055 E.02485
G1 X108 Y99.055 E1.83849
G1 X108 Y99.706 E.02489
M73 P3 R28
G1 X141.684 Y133.39 E1.82141
G1 X141.034 Y133.39 E.02485
G1 X108 Y100.356 E1.78626
G1 X108 Y101.006 E.02485
G1 X140.384 Y133.39 E1.75111
G1 X139.733 Y133.39 E.02489
G1 X108 Y101.657 E1.71591
G1 X108 Y102.307 E.02485
G1 X139.083 Y133.39 E1.68076
G1 X138.433 Y133.39 E.02485
G1 X108 Y102.957 E1.64561
G1 X108 Y103.608 E.02489
G1 X137.782 Y133.39 E1.61041
G1 X137.132 Y133.39 E.02485
G1 X108 Y104.258 E1.57526
G1 X108 Y104.908 E.02485
G1 X136.482 Y133.39 E1.54012
G1 X135.831 Y133.39 E.02489
G1 X108 Y105.559 E1.50491
G1 X108 Y106.209 E.02485
G1 X135.181 Y133.39 E1.46977
G1 X134.531 Y133.39 E.02485
M73 P4 R28
G1 X108 Y106.859 E1.43462
G1 X108 Y107.509 E.02485
G1 X133.881 Y133.39 E1.39947
G1 X133.23 Y133.39 E.02489
G1 X108 Y108.16 E1.36427
G1 X108 Y108.81 E.02485
M73 Q3 S30
G1 X132.58 Y133.39 E1.32912
G1 X131.93 Y133.39 E.02485
G1 X108 Y109.46 E1.29397
G1 X108 Y110.111 E.02489
G1 X131.279 Y133.39 E1.25877
G1 X130.629 Y133.39 E.02485
G1 X108 Y110.761 E1.22362
G1 X108 Y111.411 E.02485
G1 X129.979 Y133.39 E1.18848
G1 X129.328 Y133.39 E.02489
G1 X108 Y112.062 E1.15328
G1 X108 Y112.712 E.02485
M73 Q4 S30
G1 X128.678 Y133.39 E1.11813
G1 X128.028 Y133.39 E.02485
G1 X108 Y113.362 E1.08298
G1 X108 Y114.013 E.02489
G1 X127.377 Y133.39 E1.04778
G1 X126.727 Y133.39 E.02485
G1 X108 Y114.663 E1.01263
G1 X108 Y115.313 E.02485
G1 X126.077 Y133.39 E.97748
G1 X125.427 Y133.39 E.02485
G1 X108 Y115.963 E.94234
G1 X108 Y116.614 E.02489
G1 X124.776 Y133.39 E.90713
G1 X124.126 Y133.39 E.02485
G1 X108 Y117.264 E.87199
G1 X108 Y117.914 E.02485
G1 X123.476 Y133.39 E.83684
G1 X122.825 Y133.39 E.02489
G1 X108 Y118.565 E.80164
G1 X108 Y119.215 E.02485
G1 X122.175 Y133.39 E.76649
G1 X121.525 Y133.39 E.02485
G1 X108 Y119.865 E.73134
G1 X108 Y120.516 E.02489
G1 X120.874 Y133.39 E.69614
G1 X120.224 Y133.39 E.02485
G1 X108 Y121.166 E.66099
G1 X108 Y121.816 E.02485
G1 X119.574 Y133.39 E.62584
G1 X118.923 Y133.39 E.02489
G1 X108 Y122.467 E.59064
G1 X108 Y123.117 E.02485
G1 X118.273 Y133.39 E.5555
G1 X117.623 Y133.39 E.02485
G1 X108 Y123.767 E.52035
G1 X108 Y124.417 E.02485
G1 X116.973 Y133.39 E.4852
G1 X116.322 Y133.39 E.02489
G1 X108 Y125.068 E.45
G1 X108 Y125.718 E.02485
G1 X115.672 Y133.39 E.41485
G1 X115.022 Y133.39 E.02485
G1 X108 Y126.368 E.3797
G1 X108 Y127.019 E.02489
G1 X114.371 Y133.39 E.3445
G1 X113.721 Y133.39 E.02485
G1 X108 Y127.669 E.30935
G1 X108 Y128.319 E.02485
G1 X113.071 Y133.39 E.27421
G1 X112.42 Y133.39 E.02489
G1 X108 Y128.97 E.239
G1 X108 Y129.62 E.02485
G1 X111.77 Y133.39 E.20386
G1 X111.12 Y133.39 E.02485
G1 X108 Y130.27 E.16871
G1 X108 Y130.921 E.02489
G1 X110.469 Y133.39 E.13351
G1 X109.819 Y133.39 E.02485
G1 X108 Y131.571 E.09836
G1 X108 Y132.221 E.02485
G1 X109.169 Y133.39 E.06321
G1 X108.519 Y133.39 E.02485
G1 X107.794 Y132.666 E.03918
M204 P4000
M106 S127.5
;LAYER_CHANGE
;Z:0.4
;HEIGHT:0.2
;BEFORE_LAYER_CHANGE
G92 E0.0
;0.4
M201 X3999.43 Y3999.43

G1 E-.7 F2100
G1 X107.794 Y132.666 Z.2 F18000
G1 X121.713 Y110.093 Z.663
G1 X123.775 Y106.75 Z.723
G1 X125.836 Y103.407 Z.766
G1 X129.959 Y96.721 Z.8
G1 X142.89 Y75.75 Z.8
;AFTER_LAYER_CHANGE
;0.4
M74 W0.531299

M104 S220 ; set temperature
G1 X142.89 Y75.75
G1 Z.4 F720
G1 E.7 F1500
;TYPE:Perimeter
;WIDTH:0.449999
G1 F8343.687
G1 X142.933 Y75.872 E.00438
G1 F8312.172
G1 X142.933 Y76.41 E.01821
G1 F10200
G1 X142.933 Y133.59 E1.93547
G1 F8319.506
G1 X142.933 Y134.128 E.01821
G1 F8339.787
G1 X142.9 Y134.266 E.0048
G1 F8331.541
G1 X142.789 Y134.323 E.00422
G1 F8305.156
G1 X142.245 Y134.323 E.01841
G1 F9040.08
G1 X107.769 Y134.323 E1.16697
G1 F8306.601
G1 X107.231 Y134.323 E.01821
G1 F8297.592
G1 X107.149 Y134.308 E.00282
G1 F8329.579
G1 X107.067 Y134.192 E.00481
G1 F8304.342
G1 X107.067 Y133.649 E.01838
G1 F10200
G1 X107.067 Y76.41 E1.93747
G1 F8319.595
G1 X107.067 Y75.872 E.01821
G1 F8332.998
G1 X107.086 Y75.739 E.00455
G1 X107.233 Y75.677 E.0054
G1 F8304.974
G1 X107.771 Y75.677 E.01821
G1 F9040.933
G1 X142.2 Y75.677 E1.16538
G1 F8310.672
G1 X142.738 Y75.677 E.01821
G1 F8323.936
G1 X142.868 Y75.695 E.00444
G1 X143.284 Y75.631 F18000
;TYPE:External perimeter
G1 F1630.273
G1 X143.34 Y75.872 E.00837
G1 F1680.277
G1 X143.34 Y76.817 E.03199
G1 X143.34 Y133.183 E1.90792
G1 X143.34 Y134.128 E.03199
M73 P5 R28
G1 F1630.26
G1 X143.251 Y134.511 E.01331
G1 F1577.311
G1 X143.063 Y134.678 E.00851
G1 X142.835 Y134.73 E.00792
G1 F1680.277
G1 X141.89 Y134.73 E.03199
G1 X108.176 Y134.73 E1.14118
G1 X107.231 Y134.73 E.03199
G1 F1643.301
G1 X106.976 Y134.686 E.00876
G1 X106.782 Y134.545 E.00812
G1 F1649.689
G1 X106.66 Y134.229 E.01147
G1 F1680.277
G1 X106.66 Y133.284 E.03199
G1 X106.66 Y76.817 E1.91134
G1 X106.66 Y75.872 E.03199
G1 F1577.301
G1 X106.712 Y75.547 E.01114
G1 X106.879 Y75.359 E.00851
G1 F1630.261
G1 X107.172 Y75.27 E.01037
G1 F1680.275
G1 X108.117 Y75.27 E.03199
G1 X141.793 Y75.27 E1.13989
G1 X142.738 Y75.27 E.03199
M73 Q5 S30
G1 F1576.818
G1 X143.063 Y75.321 E.01114
G1 X143.251 Y75.489 E.00853
G1 F1630.273
G1 X143.271 Y75.573 E.00292
G1 X143.332 Y75.968 F18000
G1 E-.7 F2100
G1 X116.812 Y76.033 Z.863 F18000
G1 X112.885 Y76.043 Z.923
G1 X108.958 Y76.052 Z.966
G1 X107.523 Y76.056 Z.977
G1 Z.4 F720
G1 E.7 F1500
;TYPE:Solid infill
;WIDTH:0.548766
G1 F8895.988
G2 X107.507 Y76.117 I-.058 J.017 E.01323
;WIDTH:0.449999
G1 F11054.364
G1 X108.157 Y76.023 E.02223
G1 X107.413 Y76.767 E.03561
G1 X107.413 Y77.343 E.0195
G1 X108.733 Y76.023 E.06319
G1 X109.308 Y76.023 E.01946
G1 X107.413 Y77.918 E.09071
G1 X107.413 Y78.494 E.0195
G1 X109.884 Y76.023 E.11829
G1 X110.46 Y76.023 E.0195
G1 X107.413 Y79.07 E.14586
G1 X107.413 Y79.646 E.0195
G1 X111.036 Y76.023 E.17343
G1 X111.611 Y76.023 E.01946
G1 X107.413 Y80.221 E.20096
G1 X107.413 Y80.797 E.0195
G1 X112.187 Y76.023 E.22853
G1 X112.763 Y76.023 E.0195
G1 X107.413 Y81.373 E.2561
G1 X107.413 Y81.948 E.01946
G1 X113.338 Y76.023 E.28363
G1 X113.914 Y76.023 E.0195
G1 X107.413 Y82.524 E.3112
G1 X107.413 Y83.1 E.0195
G1 X114.49 Y76.023 E.33877
G1 X115.065 Y76.023 E.01946
G1 X107.413 Y83.675 E.3663
G1 X107.413 Y84.251 E.0195
G1 X115.641 Y76.023 E.39387
G1 X116.217 Y76.023 E.0195
G1 X107.413 Y84.827 E.42144
G1 X107.413 Y85.403 E.0195
G1 X116.793 Y76.023 E.44901
G1 X117.368 Y76.023 E.01946
G1 X107.413 Y85.978 E.47654
G1 X107.413 Y86.554 E.0195
G1 X117.944 Y76.023 E.50411
G1 X118.52 Y76.023 E.0195
G1 X107.413 Y87.13 E.53169
G1 X107.413 Y87.705 E.01946
G1 X119.095 Y76.023 E.55921
G1 X119.671 Y76.023 E.0195
G1 X107.413 Y88.281 E.58678
G1 X107.413 Y88.857 E.0195
G1 X120.247 Y76.023 E.61436
G1 X120.822 Y76.023 E.01946
G1 X107.413 Y89.432 E.64188
G1 X107.413 Y90.008 E.0195
G1 X121.398 Y76.023 E.66945
G1 X121.974 Y76.023 E.0195
G1 X107.413 Y90.584 E.69703
G1 X107.413 Y91.16 E.0195
G1 X122.55 Y76.023 E.7246
G1 X123.125 Y76.023 E.01946
G1 X107.413 Y91.735 E.75212
G1 X107.413 Y92.311 E.0195
G1 X123.701 Y76.023 E.7797
G1 X124.277 Y76.023 E.0195
G1 X107.413 Y92.887 E.80727
G1 X107.413 Y93.462 E.01946
G1 X124.852 Y76.023 E.83479
G1 X125.428 Y76.023 E.0195
G1 X107.413 Y94.038 E.86237
G1 X107.413 Y94.614 E.0195
G1 X126.004 Y76.023 E.88994
G1 X126.579 Y76.023 E.01946
G1 X107.413 Y95.189 E.91746
G1 X107.413 Y95.765 E.0195
G1 X127.155 Y76.023 E.94504
G1 X127.731 Y76.023 E.0195
G1 X107.413 Y96.341 E.97261
G1 X107.413 Y96.916 E.01946
G1 X128.306 Y76.023 E1.00013
G1 X128.882 Y76.023 E.0195
G1 X107.413 Y97.492 E1.02771
G1 X107.413 Y98.068 E.0195
G1 X129.458 Y76.023 E1.05528
G1 X130.034 Y76.023 E.0195
G1 X107.413 Y98.644 E1.08285
G1 X107.413 Y99.219 E.01946
G1 X130.609 Y76.023 E1.11038
G1 X131.185 Y76.023 E.0195
G1 X107.413 Y99.795 E1.13795
G1 X107.413 Y100.371 E.0195
G1 X131.761 Y76.023 E1.16552
G1 X132.336 Y76.023 E.01946
G1 X107.413 Y100.946 E1.19305
G1 X107.413 Y101.522 E.0195
G1 X132.912 Y76.023 E1.22062
G1 X133.488 Y76.023 E.0195
G1 X107.413 Y102.098 E1.24819
G1 X107.413 Y102.673 E.01946
G1 X134.063 Y76.023 E1.27572
G1 X134.639 Y76.023 E.0195
G1 X107.413 Y103.249 E1.30329
G1 X107.413 Y103.825 E.0195
G1 X135.215 Y76.023 E1.33086
G1 X135.791 Y76.023 E.0195
G1 X107.413 Y104.401 E1.35844
G1 X107.413 Y104.976 E.01946
G1 X136.366 Y76.023 E1.38596
G1 X136.942 Y76.023 E.0195
G1 X107.413 Y105.552 E1.41353
G1 X107.413 Y106.128 E.0195
G1 X137.518 Y76.023 E1.44111
G1 X138.093 Y76.023 E.01946
G1 X107.413 Y106.703 E1.46863
G1 X107.413 Y107.279 E.0195
G1 X138.669 Y76.023 E1.49621
G1 X139.245 Y76.023 E.0195
G1 X107.413 Y107.855 E1.52378
